lucaspinacosta/Fortis_KPI/KPI/TE02_007/te02_007_raw_joint_states.csv
time_ns,time_s,joint_count,base_to_cylinder_joint,cylinder_to_arm1_joint,arm_link1_to_arm2_joint,arm_link2_to_arm3_joint,arm_link3_to_arm4_joint,arm_link4_to_armFork_joint,basket_link_to_armFork_joint,basket_crane_link_to_basket_link,winch_link_to_basket_crane_link
1783505085312987003,1783505085.3129869,9,-0.008726645739822998,-0.03316125329117874,3.0268351236983904e-05,3.0268351236983904e-05,3.0268351236983904e-05,0.15306783833106533,0.00828682520594506,0.0,-6.6787109375
1783505085413414020,1783505085.4134142,9,-0.008726645739822998,-0.03316125329117874,3.0268351236983904e-05,3.0268351236983904e-05,3.0268351236983904e-05,0.15306783833106533,0.00828682520594506,0.0,-6.678714752197266
1783505085514654591,1783505085.5146544,9,-0.008726645739822998,-0.03316125329117874,3.0268351236983904e-05,3.0268351236983904e-05,3.0268351236983904e-05,0.15306783833106533,0.00828682520594506,0.0,-6.678714752197266
1783505085612753209,1783505085.6127532,9,-0.008726645739822998,-0.03316125329117874,3.0268351236983904e-05,3.0268351236983904e-05,3.0268351236983904e-05,0.15306783833106533,0.00828682520594506,0.0,-6.678714752197266
1783505085714924224,1783505085.7149243,9,-0.008726645739822998,-0.03316125329117874,3.0268351236983904e-05,3.0268351236983904e-05,3.0268351236983904e-05,0.15306783833106533,0.00828682520594506,0.0,-6.678714752197266
1783505085813430741,1783505085.8134308,9,-0.008726645739822998,-0.03316125329117874,3.0268351236983904e-05,3.0268351236983904e-05,3.0268351236983904e-05,0.15306783833106533,0.00828682520594506,0.0,-6.678718566894531
1783505085912035062,1783505085.912035,9,-0.008726645739822998,-0.03316125329117874,3.0268351236983904e-05,3.0268351236983904e-05,3.0268351236983904e-05,0.15306783833106533,0.00828682520594506,0.0,-6.678714752197266
1783505086014147076,1783505086.014147,9,-0.008726645739822998,-0.03316125329117874,3.0268351236983904e-05,3.0268351236983904e-05,3.0268351236983904e-05,0.15306783833106533,0.00828682520594506,0.0,-6.678718566894531
1783505086112595012,1783505086.1125948,9,-0.008726645739822998,-0.03316125329117874,3.0268351236983904e-05,3.0268351236983904e-05,3.0268351236983904e-05,0.15306783833106533,0.00828682520594506,0.0,-6.678718566894531
1783505086214829676,1783505086.2148297,9,-0.008726645739822998,-0.03316125329117874,3.0268351236983904e-05,3.0268351236983904e-05,3.0268351236983904e-05,0.15306783833106533,0.00828682520594506,0.0,-6.678714752197266
1783505086313339328,1783505086.3133395,9,-0.008726645739822998,-0.03316125329117874,3.0268351236983904e-05,3.0268351236983904e-05,3.0268351236983904e-05,0.15306783833106533,0.00828682520594506,0.0,-6.678722381591797
1783505086415750496,1783505086.4157505,9,-0.008726645739822998,-0.03316125329117874,3.0268351236983904e-05,3.0268351236983904e-05,3.0268351236983904e-05,0.15306783833106533,0.00828682520594506,0.0,-6.678718566894531
1783505086513771366,1783505086.5137713,9,-0.008726645739822998,-0.03316125329117874,3.0268351236983904e-05,3.0268351236983904e-05,3.0268351236983904e-05,0.15306783833106533,0.00828682520594506,0.0,-6.678714752197266
1783505086612376308,1783505086.6123762,9,-0.008726645739822998,-0.03316125329117874,3.0268351236983904e-05,3.0268351236983904e-05,3.0268351236983904e-05,0.15306783833106533,0.00828682520594506,0.0,-6.678714752197266
1783505086714538025,1783505086.714538,9,-0.008726645739822998,-0.03316125329117874,3.0268351236983904e-05,3.0268351236983904e-05,3.0268351236983904e-05,0.15306783833106533,0.00828682520594506,0.0,-6.678714752197266
1783505086813133079,1783505086.813133,9,-0.008726645739822998,-0.03316125329117874,3.0268351236983904e-05,3.0268351236983904e-05,3.0268351236983904e-05,0.15306783833106533,0.00828682520594506,0.0,-6.678718566894531
1783505086915109947,1783505086.9151099,9,-0.008726645739822998,-0.03316125329117874,3.0268351236983904e-05,3.0268351236983904e-05,3.0268351236983904e-05,0.15306783833106533,0.00828682520594506,0.0,-6.678714752197266
1783505087013754253,1783505087.0137544,9,-0.008726645739822998,-0.03316125329117874,3.0268351236983904e-05,3.0268351236983904e-05,3.0268351236983904e-05,0.15306783833106533,0.00828682520594506,0.0,-6.678714752197266
1783505087115780644,1783505087.1157806,9,-0.008726645739822998,-0.03316125329117874,3.0268351236983904e-05,3.0268351236983904e-05,3.0268351236983904e-05,0.15306783833106533,0.00828682520594506,0.0,-6.678718566894531
1783505087214378402,1783505087.2143786,9,-0.008726645739822998,-0.03316125329117874,3.0268351236983904e-05,3.0268351236983904e-05,3.0268351236983904e-05,0.15306783833106533,0.00828682520594506,0.0,-6.678718566894531
1783505087316483912,1783505087.3164837,9,-0.008726645739822998,-0.03316125329117874,3.0268351236983904e-05,3.0268351236983904e-05,3.0268351236983904e-05,0.15306783833106533,0.00828682520594506,0.0,-6.6787109375
1783505087415038969,1783505087.415039,9,-0.008726645739822998,-0.03490658503988659,3.0268351236983904e-05,3.0268351236983904e-05,3.0268351236983904e-05,0.1548131700797732,0.00828682520594506,0.0,-6.678714752197266
1783505087513271709,1783505087.5132718,9,-0.008726645739822998,-0.03316125329117874,3.0268351236983904e-05,3.0268351236983904e-05,3.0268351236983904e-05,0.15306783833106533,0.00828682520594506,0.0,-6.6787261962890625
1783505087615480995,1783505087.6154811,9,-0.008726645739822998,-0.03316125329117874,3.0268351236983904e-05,3.0268351236983904e-05,3.0268351236983904e-05,0.15306783833106533,0.00828682520594506,0.0,-6.678707122802734
1783505087713602064,1783505087.713602,9,-0.008726645739822998,-0.03316125329117874,3.0268351236983904e-05,3.0268351236983904e-05,3.0268351236983904e-05,0.15306783833106533,0.00828682520594506,0.0,-6.678714752197266
1783505087815678489,1783505087.8156784,9,-0.008726645739822998,-0.03316125329117874,3.0268351236983904e-05,3.0268351236983904e-05,3.0268351236983904e-05,0.15306783833106533,0.00828682520594506,0.0,-6.678714752197266
1783505087914138908,1783505087.9141388,9,-0.008726645739822998,-0.03316125329117874,3.0268351236983904e-05,3.0268351236983904e-05,3.0268351236983904e-05,0.15306783833106533,0.00828682520594506,0.0,-6.678714752197266
1783505088013514983,1783505088.013515,9,-0.008726645739822998,-0.03316125329117874,3.0268351236983904e-05,3.0268351236983904e-05,3.0268351236983904e-05,0.15306783833106533,0.00828682520594506,0.0,-6.6787261962890625
1783505088114762054,1783505088.114762,9,-0.008726645739822998,-0.03316125329117874,3.0268351236983904e-05,3.0268351236983904e-05,3.0268351236983904e-05,0.15306783833106533,0.00828682520594506,0.0,-6.678714752197266
1783505088213218565,1783505088.2132185,9,-0.008726645739822998,-0.03316125329117874,3.0268351236983904e-05,3.0268351236983904e-05,3.0268351236983904e-05,0.15306783833106533,0.00828682520594506,0.0,-6.678722381591797
1783505088316020507,1783505088.3160205,9,-0.008726645739822998,-0.03316125329117874,3.0268351236983904e-05,3.0268351236983904e-05,3.0268351236983904e-05,0.15306783833106533,0.00828682520594506,0.0,-6.678718566894531
1783505088414366179,1783505088.4143662,9,-0.008726645739822998,-0.03316125329117874,3.0268351236983904e-05,3.0268351236983904e-05,3.0268351236983904e-05,0.15306783833106533,0.00828682520594506,0.0,-6.678718566894531
1783505088516915295,1783505088.516915,9,-0.008726645739822998,-0.03316125329117874,3.0268351236983904e-05,3.0268351236983904e-05,3.0268351236983904e-05,0.15306783833106533,0.00828682520594506,0.0,-6.678718566894531
1783505088614946985,1783505088.614947,9,-0.008726645739822998,-0.03316125329117874,3.0268351236983904e-05,3.0268351236983904e-05,3.0268351236983904e-05,0.15306783833106533,0.00828682520594506,0.0,-6.678722381591797
1783505088717320059,1783505088.71732,9,-0.008726645739822998,-0.03316125329117874,3.0268351236983904e-05,3.0268351236983904e-05,3.0268351236983904e-05,0.15306783833106533,0.00828682520594506,0.0,-6.678722381591797
1783505088815749108,1783505088.8157492,9,-0.008726645739822998,-0.03316125329117874,3.0268351236983904e-05,3.0268351236983904e-05,3.0268351236983904e-05,0.15306783833106533,0.00828682520594506,0.0,-6.6787261962890625
1783505088914027413,1783505088.9140275,9,-0.008726645739822998,-0.03316125329117874,3.0268351236983904e-05,3.0268351236983904e-05,3.0268351236983904e-05,0.15306783833106533,0.00828682520594506,0.0,-6.678718566894531
1783505089016412519,1783505089.0164125,9,-0.008726645739822998,-0.03316125329117874,3.0268351236983904e-05,3.0268351236983904e-05,3.0268351236983904e-05,0.15306783833106533,0.007983091683621525,0.0,-6.678745269775391
1783505089114705471,1783505089.1147053,9,-0.008726645739822998,-0.03490658503988659,3.0268351236983904e-05,3.0268351236983904e-05,3.0268351236983904e-05,0.1548131700797732,0.00803369174433303,0.0,-6.678730010986328
1783505089217144068,1783505089.217144,9,-0.008726645739822998,-0.03490658503988659,3.0268351236983904e-05,3.0268351236983904e-05,3.0268351236983904e-05,0.1548131700797732,0.008084291805044535,0.0,-6.6787261962890625
1783505089315468549,1783505089.3154685,9,-0.008726645739822998,-0.03490658503988659,3.0268351236983904e-05,3.0268351236983904e-05,3.0268351236983904e-05,0.1548131700797732,0.008084291805044535,0.0,-6.6787261962890625
1783505089417632288,1783505089.4176323,9,-0.008726645739822998,-0.03490658503988659,3.0268351236983904e-05,3.0268351236983904e-05,3.0268351236983904e-05,0.1548131700797732,0.008084291805044535,0.0,-6.678749084472656
1783505089516250743,1783505089.5162506,9,-0.008726645739822998,-0.03490658503988659,3.0268351236983904e-05,3.0268351236983904e-05,3.0268351236983904e-05,0.1548131700797732,0.008084291805044535,0.0,-6.678737640380859
1783505089618439980,1783505089.61844,9,-0.008726645739822998,-0.03665191262740524,3.0268351236983904e-05,3.0268351236983904e-05,3.0268351236983904e-05,0.15655849766729182,0.008084291805044535,0.0,-6.678733825683594
1783505089716754332,1783505089.7167544,9,-0.008726645739822998,-0.03665191262740524,3.0268351236983904e-05,3.0268351236983904e-05,3.0268351236983904e-05,0.15655849766729182,0.008084291805044535,0.0,-6.678737640380859
1783505089815071319,1783505089.8150713,9,-0.008726645739822998,-0.03839724021492389,3.0268351236983904e-05,3.0268351236983904e-05,3.0268351236983904e-05,0.1583038252548105,0.008084291805044535,0.0,-6.678737640380859
1783505089917569809,1783505089.9175699,9,-0.008726645739822998,-0.03839724021492389,3.0268351236983904e-05,3.0268351236983904e-05,3.0268351236983904e-05,0.1583038252548105,0.008084291805044535,0.0,-6.678749084472656
1783505090015920860,1783505090.0159209,9,-0.008726645739822998,-0.04014257196363174,0.0010403683980306038,0.0010403683980306038,0.0010403683980306038,0.16004915700351832,0.008084291805044535,0.0,-6.678714752197266
1783505090118257003,1783505090.1182568,9,-0.008726645739822998,-0.04014257196363174,0.0010403683980306038,0.0010403683980306038,0.0010403683980306038,0.16004915700351832,0.008134891865756042,0.0,-6.6787261962890625
1783505090216488609,1783505090.2164886,9,-0.008726645739822998,-0.04188789955115039,0.0010403683980306038,0.0010403683980306038,0.0010403683980306038,0.16179448459103699,0.008134891865756042,0.0,-6.678745269775391
1783505090314740683,1783505090.3147407,9,-0.008726645739822998,-0.04363322713866904,0.0010403683980306038,0.0010403683980306038,0.0010403683980306038,0.16353981217855562,0.008134891865756042,0.0,-6.678760528564453
1783505090417102114,1783505090.417102,9,-0.008726645739822998,-0.04537855888737689,0.0010403683980306038,0.0010403683980306038,0.0010403683980306038,0.16528514392726348,0.008134891865756042,0.0,-6.678745269775391
1783505090514982467,1783505090.5149825,9,-0.008726645739822998,-0.047123886474895536,0.0010403683980306038,0.0010403683980306038,0.0010403683980306038,0.16703047151478212,0.008134891865756042,0.0,-6.678745269775391
1783505090617551640,1783505090.6175516,9,-0.008726645739822998,-0.048869214062414186,0.0010403683980306038,0.0010403683980306038,0.0010403683980306038,0.16877579910230078,0.008134891865756042,0.0,-6.6787567138671875
1783505090716673934,1783505090.716674,9,-0.008726645739822998,-0.050614545811122034,0.0010403683980306038,0.0010403683980306038,0.0010403683980306038,0.15306783833106533,0.008134891865756042,0.0,-6.678752899169922
1783505090818544239,1783505090.8185441,9,-0.008726645739822998,-0.054105200986159334,0.0010403683980306038,0.0010403683980306038,0.0010403683980306038,0.15655849350610263,0.008134891865756042,0.0,-6.678779602050781
1783505090916931538,1783505090.9169316,9,-0.008726645739822998,-0.05585053273486718,0.0010403683980306038,0.0010403683980306038,0.0010403683980306038,0.1583038252548105,0.008134891865756042,0.0,-6.678714752197266
1783505091019265066,1783505091.019265,9,-0.008726645739822998,-0.05585053273486718,0.0010403683980306038,0.0010403683980306038,0.0010403683980306038,0.1583038252548105,0.008134891865756042,0.0,-6.678779602050781
1783505091117848033,1783505091.1178482,9,-0.008726645739822998,-0.05934119207109368,0.0010403683980306038,0.0010403683980306038,0.0010403683980306038,0.16179448459103699,0.008134891865756042,0.0,-6.678779602050781
1783505091215863240,1783505091.2158632,9,-0.008726645739822998,-0.06108651965861233,0.0010403683980306038,0.0010403683980306038,0.0010403683980306038,0.16353981217855562,0.008134891865756042,0.0,-6.678737640380859
1783505091318441750,1783505091.3184416,9,-0.008726645739822998,-0.06283184724613097,0.0010403683980306038,0.0010403683980306038,0.0010403683980306038,0.16528513976607426,0.008134891865756042,0.0,-6.678798675537109
1783505091416782060,1783505091.4167821,9,-0.008726645739822998,-0.06457717899483884,0.0010403683980306038,0.0010403683980306038,0.0010403683980306038,0.16703047151478215,0.008134891865756042,0.0,-6.678749084472656
1783505091518922874,1783505091.5189228,9,-0.008726645739822998,-0.06632250658235748,3.0268351236983904e-05,3.0268351236983904e-05,3.0268351236983904e-05,0.16877579910230078,0.008134891865756042,0.0,-6.678760528564453
1783505091617974524,1783505091.6179745,9,-0.008726645739822998,-0.06806783833106533,-0.000979831695556636,-0.000979831695556636,-0.000979831695556636,0.17052113085100865,0.008185491926467546,0.0,-6.678722381591797
1783505091715576212,1783505091.7155764,9,-0.008726645739822998,-0.07155849766729183,-0.001989931742350256,-0.001989931742350256,-0.001989931742350256,0.17401179018723514,0.008185491926467546,0.0,-6.678714752197266
1783505091817791126,1783505091.8177912,9,-0.008726645739822998,-0.07155849766729183,-0.0030000317891438755,-0.0030000317891438755,-0.0030000317891438755,0.17401179018723514,0.008185491926467546,0.0,-6.678737640380859
1783505091920183775,1783505091.920184,9,-0.008726645739822998,-0.07330382525481048,-0.005020231882731115,-0.005020231882731115,-0.005020231882731115,0.17575711777475378,0.008185491926467546,0.0,-6.678730010986328
1783505092018612992,1783505092.018613,9,-0.008726645739822998,-0.07504915284232913,-0.007040431976318355,-0.007040431976318355,-0.007040431976318355,0.17750244536227242,0.008185491926467546,0.0,-6.678730010986328
1783505092117079148,1783505092.117079,9,-0.008726645739822998,-0.07679448875222618,-0.009060632069905594,-0.009060632069905594,-0.009060632069905594,0.17924778127216948,0.008185491926467546,0.0,-6.6787109375
1783505092219396936,1783505092.2193968,9,-0.008726645739822998,-0.07853981633974483,-0.011080832163492834,-0.011080832163492834,-0.011080832163492834,0.18099310885968814,0.008185491926467546,0.0,-6.678730010986328
1783505092317648708,1783505092.3176486,9,-0.008726645739822998,-0.08028514392726348,-0.014111132303873694,-0.014111132303873694,-0.014111132303873694,0.18273843644720678,0.008185491926467546,0.0,-6.678730010986328
1783505092419864643,1783505092.4198647,9,-0.008726645739822998,-0.08203047151478213,-0.01714143244425455,-0.01714143244425455,-0.01714143244425455,0.1844837640347254,0.008185491926467546,0.0,-6.6787109375
1783505092518309249,1783505092.5183094,9,-0.008726645739822998,-0.08203047151478213,-0.02118183263142903,-0.02118183263142903,-0.02118183263142903,0.1844837640347254,0.008185491926467546,0.0,-6.678714752197266
1783505092616743515,1783505092.6167433,9,-0.008726645739822998,-0.08377579910230078,-0.02421213277180989,-0.02421213277180989,-0.02421213277180989,0.18622909162224408,0.008185491926467546,0.0,-6.678714752197266
1783505092719170889,1783505092.7191708,9,-0.008726645739822998,-0.08377579910230078,-0.02825253295898437,-0.02825253295898437,-0.02825253295898437,0.18622909162224408,0.008185491926467546,0.0,-6.678718566894531
1783505092817432901,1783505092.8174329,9,-0.008726645739822998,-0.08552113501219782,-0.03128283309936523,-0.03128283309936523,-0.03128283309936523,0.18797442753214114,0.008185491926467546,0.0,-6.6787261962890625
1783505092919583412,1783505092.9195836,9,-0.008726645739822998,-0.08726646259971647,-0.03431313323974609,-0.03431313323974609,-0.03431313323974609,0.18971975511965977,0.008185491926467546,0.0,-6.678730010986328
1783505093018133858,1783505093.0181339,9,-0.008726645739822998,-0.08726646259971647,-0.03633333333333333,-0.03633333333333333,-0.03633333333333333,0.18971975511965977,0.008185491926467546,0.0,-6.678718566894531
1783505093120281363,1783505093.1202815,9,-0.008726645739822998,-0.08901179018723512,-0.03936363347371419,-0.03936363347371419,-0.03936363347371419,0.1914650827071784,0.008337425266656567,0.0,-6.678718566894531
1783505093218671125,1783505093.218671,9,-0.008726645739822998,-0.08901179018723512,-0.04239393361409505,-0.04239393361409505,-0.04239393361409505,0.1914650827071784,0.0086410256309256,0.0,-6.678703308105469
1783505093321225147,1783505093.3212252,9,-0.008726645739822998,-0.09075711777475377,-0.04542423375447591,-0.04542423375447591,-0.04542423375447591,0.19321041029469707,0.008134891865756042,0.0,-6.678730010986328
1783505093419803434,1783505093.4198034,9,-0.008726645739822998,-0.09075711777475377,-0.048454533894856766,-0.048454533894856766,-0.048454533894856766,0.19321041029469707,0.007983091683621525,0.0,-6.678730010986328
1783505093517775488,1783505093.5177753,9,-0.008726645739822998,-0.09250244536227242,-0.051484834035237625,-0.051484834035237625,-0.051484834035237625,0.19495573788221573,0.007983091683621525,0.0,-6.678733825683594
1783505093619138896,1783505093.6191387,9,-0.008726645739822998,-0.09250244536227242,-0.054515134175618485,-0.054515134175618485,-0.054515134175618485,0.19495573788221573,0.008590425570214095,0.0,-6.678718566894531
1783505093718478558,1783505093.7184787,9,-0.008726645739822998,-0.09424778127216947,-0.05653533426920573,-0.05653533426920573,-0.05653533426920573,0.19670107379211277,0.008590425570214095,0.0,-6.678718566894531
1783505093820719700,1783505093.8207197,9,-0.008726645739822998,-0.09599310885968812,-0.059565634409586586,-0.059565634409586586,-0.059565634409586586,0.1984464013796314,0.008185491926467546,0.0,-6.678722381591797
1783505093919330018,1783505093.9193301,9,-0.008726645739822998,-0.09773843644720677,-0.06259593454996744,-0.06259593454996744,-0.06259593454996744,0.20019172896715007,0.008134891865756042,0.0,-6.678722381591797
1783505094021327741,1783505094.0213277,9,-0.008726645739822998,-0.09948376403472542,-0.0656262346903483,-0.0656262346903483,-0.0656262346903483,0.20193705655466873,0.008134891865756042,0.0,-6.678722381591797
1783505094119801159,1783505094.119801,9,-0.008726645739822998,-0.10122909162224407,-0.06865653483072916,-0.06865653483072916,-0.06865653483072916,0.20368238414218737,0.008438625388079579,0.0,-6.678722381591797
1783505094218209105,1783505094.218209,9,-0.008726645739822998,-0.10297441920976272,-0.0706767349243164,-0.0706767349243164,-0.0706767349243164,0.205427711729706,0.008489225448791084,0.0,-6.678722381591797
1783505094320466457,1783505094.3204665,9,-0.008726645739822998,-0.10646508270717842,-0.07370703506469727,-0.07370703506469727,-0.07370703506469727,0.20891837522712173,0.008489225448791084,0.0,-6.678722381591797
1783505094418824067,1783505094.4188242,9,-0.008726645739822998,-0.10646508270717842,-0.0757273941040039,-0.0757273941040039,-0.0757273941040039,0.20891837522712173,0.008489225448791084,0.0,-6.678722381591797
1783505094521106166,1783505094.5211062,9,-0.008726645739822998,-0.10646508270717842,-0.07976779429117838,-0.07976779429117838,-0.07976779429117838,0.20891837522712173,0.008438625388079579,0.0,-6.678737640380859
1783505094619653845,1783505094.619654,9,-0.008726645739822998,-0.10821041029469707,-0.08178799438476562,-0.08178799438476562,-0.08178799438476562,0.21066370281464036,0.00742635785774046,0.0,-6.6787567138671875
1783505094721783416,1783505094.7217834,9,-0.008726645739822998,-0.10821041029469707,-0.08481829452514648,-0.08481829452514648,-0.08481829452514648,0.21066370281464036,0.008185491926467546,0.0,-6.678733825683594
1783505094820345161,1783505094.8203452,9,-0.008726645739822998,-0.10646508270717842,-0.08784859466552734,-0.08784859466552734,-0.08784859466552734,0.20891837522712173,0.008944759153249137,0.0,-6.678699493408203
1783505094918504097,1783505094.9185042,9,-0.008726645739822998,-0.10297441920976272,-0.0908788948059082,-0.0908788948059082,-0.0908788948059082,0.205427711729706,0.008944759153249137,0.0,-6.678707122802734
1783505095020847882,1783505095.0208478,9,-0.008726645739822998,-0.10471975511965978,-0.09390919494628906,-0.09390919494628906,-0.09390919494628906,0.20717304763960306,0.008236225145233556,0.0,-6.678737640380859
1783505095122084238,1783505095.1220844,9,-0.008726645739822998,-0.10821041029469707,-0.09794959513346353,-0.09794959513346353,-0.09794959513346353,0.21066370281464036,0.007578158039874976,0.0,-6.678752899169922
1783505095220893490,1783505095.2208934,9,-0.008726645739822998,-0.10646508270717842,-0.10198999532063802,-0.10198999532063802,-0.10198999532063802,0.20891837522712173,0.00803369174433303,0.0,-6.6787261962890625
1783505095319705907,1783505095.319706,9,-0.008726645739822998,-0.10471975511965978,-0.1060303955078125,-0.1060303955078125,-0.1060303955078125,0.20717304763960306,0.008489225448791084,0.0,-6.678714752197266
1783505095421907363,1783505095.4219074,9,-0.008726645739822998,-0.10646508270717842,-0.11007079569498697,-0.11007079569498697,-0.11007079569498697,0.20891837522712173,0.008539825509502589,0.0,-6.678707122802734
1783505095520249163,1783505095.5202491,9,-0.008726645739822998,-0.10995573788221571,-0.11411119588216145,-0.11411119588216145,-0.11411119588216145,0.212409030402159,0.008236225145233556,0.0,-6.678722381591797
1783505095622549636,1783505095.6225498,9,-0.008726645739822998,-0.11170106546973436,-0.11916169611612955,-0.11916169611612955,-0.11916169611612955,0.21415435798967766,0.007780691440775502,0.0,-6.678749084472656
1783505095721148621,1783505095.7211487,9,-0.008726645739822998,-0.11170106546973436,-0.12320209630330403,-0.12320209630330403,-0.12320209630330403,0.21415435798967766,0.007780691440775502,0.0,-6.678722381591797
1783505095819599246,1783505095.8195994,9,-0.008726645739822998,-0.11344640137963143,-0.1272424964904785,-0.1272424964904785,-0.1272424964904785,0.21589969389957472,0.008438625388079579,0.0,-6.6787109375
1783505095921707827,1783505095.9217079,9,-0.008726645739822998,-0.11519172896715008,-0.131282896677653,-0.131282896677653,-0.131282896677653,0.2176450214870934,0.0086410256309256,0.0,-6.678707122802734
1783505096020230357,1783505096.0202303,9,-0.008726645739822998,-0.11693705655466871,-0.13532329686482747,-0.13532329686482747,-0.13532329686482747,0.219390349074612,0.00828682520594506,0.0,-6.6787261962890625
1783505096121979560,1783505096.1219797,9,-0.008726645739822998,-0.11693705655466871,-0.13835359700520833,-0.13835359700520833,-0.13835359700520833,0.219390349074612,0.007983091683621525,0.0,-6.678741455078125
1783505096220831752,1783505096.2208316,9,-0.008726645739822998,-0.11693705655466871,-0.1413838971455892,-0.1413838971455892,-0.1413838971455892,0.219390349074612,0.007983091683621525,0.0,-6.678730010986328
1783505096323286384,1783505096.3232863,9,-0.008726645739822998,-0.11868238414218736,-0.14441419728597005,-0.14441419728597005,-0.14441419728597005,0.22113567666213066,0.008489225448791084,0.0,-6.678703308105469
1783505096421659763,1783505096.4216597,9,-0.008726645739822998,-0.11868238414218736,-0.1474444974263509,-0.1474444974263509,-0.1474444974263509,0.22113567666213066,0.008691625691637105,0.0,-6.6786956787109375
1783505096520141356,1783505096.5201414,9,-0.008726645739822998,-0.12042771172970601,-0.14946469751993816,-0.14946469751993816,-0.14946469751993816,0.22288100424964932,0.008438625388079579,0.0,-6.6787261962890625
1783505096622377136,1783505096.6223772,9,-0.008726645739822998,-0.12042771172970601,-0.15148489761352538,-0.15148489761352538,-0.15148489761352538,0.22288100424964932,0.00803369174433303,0.0,-6.678737640380859
1783505096720885360,1783505096.7208853,9,-0.008726645739822998,-0.12217304763960307,-0.15350509770711263,-0.15350509770711263,-0.15350509770711263,0.22462634015954638,0.00803369174433303,0.0,-6.678730010986328
1783505096823124786,1783505096.8231246,9,-0.008726645739822998,-0.12217304763960307,-0.15552529780069987,-0.15552529780069987,-0.15552529780069987,0.22462634015954638,0.008337425266656567,0.0,-6.678718566894531
1783505096921890475,1783505096.9218905,9,-0.008726645739822998,-0.12391837522712172,-0.1575454978942871,-0.1575454978942871,-0.1575454978942871,0.22637166774706502,0.008539825509502589,0.0,-6.678703308105469
1783505097023558094,1783505097.0235581,9,-0.008726645739822998,-0.12391837522712172,-0.15956569798787434,-0.15956569798787434,-0.15956569798787434,0.22637166774706502,0.008539825509502589,0.0,-6.678722381591797
1783505097122058902,1783505097.122059,9,-0.008726645739822998,-0.12566370281464037,-0.1625959981282552,-0.1625959981282552,-0.1625959981282552,0.22811699533458366,0.008134891865756042,0.0,-6.678745269775391
1783505097224446117,1783505097.2244463,9,-0.008726645739822998,-0.12566370281464037,-0.16461619822184245,-0.16461619822184245,-0.16461619822184245,0.22811699533458366,0.008084291805044535,0.0,-6.678733825683594
1783505097322790681,1783505097.3227906,9,-0.008726645739822998,-0.127409030402159,-0.1676464983622233,-0.1676464983622233,-0.1676464983622233,0.22986232292210232,0.008236225145233556,0.0,-6.6787109375
1783505097421093957,1783505097.421094,9,-0.008726645739822998,-0.127409030402159,-0.17067679850260417,-0.17067679850260417,-0.17067679850260417,0.22986232292210232,0.008539825509502589,0.0,-6.678703308105469
1783505097523510808,1783505097.5235107,9,-0.008726645739822998,-0.12915435798967767,-0.17471719868977864,-0.17471719868977864,-0.17471719868977864,0.23160765050962098,0.008539825509502589,0.0,-6.6787261962890625
1783505097621710339,1783505097.6217103,9,-0.008726645739822998,-0.12915435798967767,-0.1787575988769531,-0.1787575988769531,-0.1787575988769531,0.23160765050962098,0.008185491926467546,0.0,-6.678737640380859
1783505097724236786,1783505097.7242367,9,-0.008726645739822998,-0.1308996938995747,-0.1827979990641276,-0.1827979990641276,-0.1827979990641276,0.233352986419518,0.00803369174433303,0.0,-6.678737640380859
1783505097822523461,1783505097.8225234,9,-0.008726645739822998,-0.13264502148709337,-0.18683839925130208,-0.18683839925130208,-0.18683839925130208,0.23509831400703665,0.008134891865756042,0.0,-6.678722381591797
1783505097920953035,1783505097.920953,9,-0.008726645739822998,-0.13264502148709337,-0.19087879943847655,-0.19087879943847655,-0.19087879943847655,0.23509831400703665,0.008489225448791084,0.0,-6.678703308105469
1783505098023043871,1783505098.0230439,9,-0.008726645739822998,-0.134390349074612,-0.19491919962565105,-0.19491919962565105,-0.19491919962565105,0.23684364159455532,0.008539825509502589,0.0,-6.678707122802734
1783505098121537225,1783505098.1215372,9,-0.008726645739822998,-0.134390349074612,-0.19996969985961913,-0.19996969985961913,-0.19996969985961913,0.23684364159455532,0.008236225145233556,0.0,-6.678733825683594
1783505098223801968,1783505098.2238019,9,-0.008726645739822998,-0.134390349074612,-0.20401010004679362,-0.20401010004679362,-0.20401010004679362,0.23684364159455532,0.008084291805044535,0.0,-6.678737640380859
1783505098322133808,1783505098.3221338,9,-0.008726645739822998,-0.13613567666213067,-0.2080505002339681,-0.2080505002339681,-0.2080505002339681,0.23858896918207398,0.008084291805044535,0.0,-6.6787261962890625
1783505098424299364,1783505098.4242992,9,-0.008726645739822998,-0.13613567666213067,-0.21108080037434895,-0.21108080037434895,-0.21108080037434895,0.23858896918207398,0.008590425570214095,0.0,-6.678718566894531
1783505098522777590,1783505098.5227776,9,-0.008726645739822998,-0.13613567666213067,-0.21512120056152342,-0.21512120056152342,-0.21512120056152342,0.23858896918207398,0.008590425570214095,0.0,-6.678714752197266
1783505098625008359,1783505098.6250083,9,-0.008726645739822998,-0.1378810042496493,-0.2181516596476237,-0.2181516596476237,-0.2181516596476237,0.2403342967695926,0.00828682520594506,0.0,-6.678733825683594
1783505098723440688,1783505098.7234406,9,-0.008726645739822998,-0.1378810042496493,-0.22118180084228514,-0.22118180084228514,-0.22118180084228514,0.2403342967695926,0.008134891865756042,0.0,-6.678733825683594
1783505098822232875,1783505098.8222327,9,-0.008726645739822998,-0.13962633183716797,-0.2232020009358724,-0.2232020009358724,-0.2232020009358724,0.24207962435711125,0.008134891865756042,0.0,-6.678733825683594
1783505098924171964,1783505098.924172,9,-0.008726645739822998,-0.13962633183716797,-0.22623246002197264,-0.22623246002197264,-0.22623246002197264,0.24207962435711125,0.008489225448791084,0.0,-6.6787261962890625
1783505099022693481,1783505099.0226934,9,-0.008726645739822998,-0.13962633183716797,-0.2282526601155599,-0.2282526601155599,-0.2282526601155599,0.24207962435711125,0.008489225448791084,0.0,-6.678722381591797
1783505099124947664,1783505099.1249478,9,-0.008726645739822998,-0.1413716594246866,-0.23027286020914714,-0.23027286020914714,-0.23027286020914714,0.24382495194462991,0.008438625388079579,0.0,-6.678722381591797
1783505099223330238,1783505099.2233303,9,-0.008726645739822998,-0.1413716594246866,-0.23229306030273436,-0.23229306030273436,-0.23229306030273436,0.24382495194462991,0.008185491926467546,0.0,-6.678733825683594
1783505099321743240,1783505099.3217432,9,-0.008726645739822998,-0.14311699533458366,-0.2343132603963216,-0.2343132603963216,-0.2343132603963216,0.24557028785452698,0.008185491926467546,0.0,-6.678730010986328
1783505099423794751,1783505099.4237947,9,-0.008726645739822998,-0.14311699533458366,-0.23633346048990886,-0.23633346048990886,-0.23633346048990886,0.24557028785452698,0.008337425266656567,0.0,-6.6787261962890625
1783505099525677263,1783505099.5256772,9,-0.008726645739822998,-0.14311699533458366,-0.23835366058349608,-0.23835366058349608,-0.23835366058349608,0.24557028785452698,0.008438625388079579,0.0,-6.678718566894531
1783505099623947305,1783505099.6239474,9,-0.008726645739822998,-0.1448623145997239,-0.24138396072387694,-0.24138396072387694,-0.24138396072387694,0.24731560711966719,0.008438625388079579,0.0,-6.678718566894531
1783505099722515550,1783505099.7225153,9,-0.008726645739822998,-0.1448623145997239,-0.24542436091105144,-0.24542436091105144,-0.24542436091105144,0.24731560711966719,0.008185491926467546,0.0,-6.6787261962890625
1783505099824575426,1783505099.8245754,9,-0.008726645739822998,-0.14660765050962096,-0.2484546610514323,-0.2484546610514323,-0.2484546610514323,0.24906094302956425,0.008134891865756042,0.0,-6.678730010986328
1783505099922803790,1783505099.9228036,9,-0.008726645739822998,-0.14835298641951802,-0.25249506123860677,-0.25249506123860677,-0.25249506123860677,0.25080627893946134,0.008236225145233556,0.0,-6.678730010986328
1783505100025744617,1783505100.0257447,9,-0.008726645739822998,-0.14835298641951802,-0.25653546142578126,-0.25653546142578126,-0.25653546142578126,0.25080627893946134,0.008388025327368072,0.0,-6.678730010986328
1783505100124349199,1783505100.124349,9,-0.008726645739822998,-0.14835298641951802,-0.2605758616129557,-0.2605758616129557,-0.2605758616129557,0.25080627893946134,0.008388025327368072,0.0,-6.6787261962890625
1783505100222783250,1783505100.2227833,9,-0.008726645739822998,-0.15009830568465826,-0.2646162618001302,-0.2646162618001302,-0.2646162618001302,0.2525515982046016,0.008337425266656567,0.0,-6.678730010986328
1783505100325160574,1783505100.3251605,9,-0.008726645739822998,-0.15009830568465826,-0.2686566619873047,-0.2686566619873047,-0.2686566619873047,0.2525515982046016,0.008236225145233556,0.0,-6.678730010986328
1783505100423540043,1783505100.4235399,9,-0.008726645739822998,-0.15009830568465826,-0.2737071622212728,-0.2737071622212728,-0.2737071622212728,0.2525515982046016,0.008236225145233556,0.0,-6.6787261962890625
1783505100525686702,1783505100.5256867,9,-0.008726645739822998,-0.1518436415945553,-0.2777475624084473,-0.2777475624084473,-0.2777475624084473,0.2542969341144986,0.008438625388079579,0.0,-6.6787261962890625
1783505100624114521,1783505100.6241145,9,-0.008726645739822998,-0.1518436415945553,-0.2817879625956217,-0.2817879625956217,-0.2817879625956217,0.2542969341144986,0.008438625388079579,0.0,-6.678730010986328
1783505100726512424,1783505100.7265124,9,-0.008726645739822998,-0.15358896085969556,-0.2858283627827962,-0.2858283627827962,-0.2858283627827962,0.2560422533796389,0.008388025327368072,0.0,-6.6787261962890625
1783505100824777957,1783505100.824778,9,-0.008726645739822998,-0.15358896085969556,-0.2898687629699707,-0.2898687629699707,-0.2898687629699707,0.2560422533796389,0.008236225145233556,0.0,-6.678730010986328
1783505100926962308,1783505100.9269624,9,-0.008726645739822998,-0.1553342967695926,-0.2928990631103516,-0.2928990631103516,-0.2928990631103516,0.25778758928953593,0.008236225145233556,0.0,-6.6787261962890625
1783505101025217692,1783505101.0252178,9,-0.008726645739822998,-0.1553342967695926,-0.29592936325073244,-0.29592936325073244,-0.29592936325073244,0.25778758928953593,0.008337425266656567,0.0,-6.678730010986328
1783505101123304698,1783505101.1233046,9,-0.008726645739822998,-0.15707963267948966,-0.2989596633911133,-0.2989596633911133,-0.2989596633911133,0.259532925199433,0.008388025327368072,0.0,-6.678730010986328
1783505101225455424,1783505101.2254553,9,-0.008726645739822998,-0.15707963267948966,-0.3009798634847005,-0.3009798634847005,-0.3009798634847005,0.259532925199433,0.008388025327368072,0.0,-6.6787261962890625
1783505101323867032,1783505101.323867,9,-0.008726645739822998,-0.1588249519446299,-0.3040101636250814,-0.3040101636250814,-0.3040101636250814,0.2612782444645732,0.00828682520594506,0.0,-6.6787261962890625
1783505101426183461,1783505101.4261835,9,-0.008726645739822998,-0.16057028785452696,-0.3060303637186686,-0.3060303637186686,-0.3060303637186686,0.26302358037447027,0.00828682520594506,0.0,-6.678730010986328
1783505101524577356,1783505101.5245774,9,-0.008726645739822998,-0.16057028785452696,-0.30704046376546223,-0.30704046376546223,-0.30704046376546223,0.26302358037447027,0.00828682520594506,0.0,-6.6787261962890625
1783505101622907600,1783505101.6229076,9,-0.008726645739822998,-0.16057028785452696,-0.30906066385904946,-0.30906066385904946,-0.30906066385904946,0.26302358037447027,0.008438625388079579,0.0,-6.6787261962890625
1783505101725279784,1783505101.7252798,9,-0.008726645739822998,-0.1623156071196672,-0.3120909639994303,-0.3120909639994303,-0.3120909639994303,0.26476889963961053,0.008438625388079579,0.0,-6.6787261962890625
1783505101823744121,1783505101.823744,9,-0.008726645739822998,-0.1623156071196672,-0.3141111640930176,-0.3141111640930176,-0.3141111640930176,0.26476889963961053,0.008337425266656567,0.0,-6.6787261962890625
1783505101925904165,1783505101.925904,9,-0.008726645739822998,-0.16406094302956425,-0.31714146423339845,-0.31714146423339845,-0.31714146423339845,0.2665142355495076,0.00828682520594506,0.0,-6.6787261962890625
1783505102024583307,1783505102.0245833,9,-0.008726645739822998,-0.16580627893946132,-0.3201717643737793,-0.3201717643737793,-0.3201717643737793,0.26825957145940466,0.00828682520594506,0.0,-6.6787261962890625
1783505102127048997,1783505102.127049,9,-0.008726645739822998,-0.16580627893946132,-0.32219196446736653,-0.32219196446736653,-0.32219196446736653,0.26825957145940466,0.008489225448791084,0.0,-6.6787261962890625
1783505102225167221,1783505102.225167,9,-0.008726645739822998,-0.16580627893946132,-0.32623236465454103,-0.32623236465454103,-0.32623236465454103,0.26825957145940466,0.008489225448791084,0.0,-6.6787261962890625
1783505102327507053,1783505102.327507,9,-0.008726645739822998,-0.16755159820460155,-0.3292626647949219,-0.3292626647949219,-0.3292626647949219,0.27000489072454487,0.008438625388079579,0.0,-6.6787261962890625
1783505102425897000,1783505102.425897,9,-0.008726645739822998,-0.16755159820460155,-0.33330306498209633,-0.33330306498209633,-0.33330306498209633,0.27000489072454487,0.008185491926467546,0.0,-6.6787261962890625
1783505102524265586,1783505102.5242655,9,-0.008726645739822998,-0.16929693411449862,-0.3363333651224772,-0.3363333651224772,-0.3363333651224772,0.2717502266344419,0.007780691440775502,0.0,-6.6787261962890625
1783505102626230672,1783505102.6262307,9,-0.008726645739822998,-0.16929693411449862,-0.3403737653096517,-0.3403737653096517,-0.3403737653096517,0.2717502266344419,0.007527557979163471,0.0,-6.6787261962890625
1783505102724700299,1783505102.7247005,9,-0.008726645739822998,-0.17104225337963885,-0.3423939654032389,-0.3423939654032389,-0.3423939654032389,0.2734955458995822,0.006869624031859395,0.0,-6.6787261962890625
1783505102827097239,1783505102.8270974,9,-0.003490658295929199,-0.17104225337963885,-0.3444141654968262,-0.3444141654968262,-0.3444141654968262,0.2734955458995822,0.006869624031859395,0.0,-6.6787261962890625
1783505102925473079,1783505102.925473,9,-0.0017453291479645994,-0.17104225337963885,-0.34744446563720705,-0.34744446563720705,-0.34744446563720705,0.2734955458995822,0.006920224092570901,0.0,-6.6787261962890625
1783505103028006275,1783505103.0280063,9,0.003490658295929199,-0.1727875892895359,-0.3504747657775879,-0.3504747657775879,-0.3504747657775879,0.2752408818094792,0.006464690388112847,0.0,-6.6787261962890625
1783505103126512661,1783505103.1265125,9,0.008726645739822998,-0.17453292519943295,-0.3524949658711751,-0.3524949658711751,-0.3524949658711751,0.27698621771937626,0.006464690388112847,0.0,-6.6787261962890625
1783505103228566543,1783505103.2285666,9,0.013962633183716796,-0.17453292519943295,-0.355525266011556,-0.355525266011556,-0.355525266011556,0.27698621771937626,0.006464690388112847,0.0,-6.6787261962890625
1783505103327072788,1783505103.3270729,9,0.019198620107461945,-0.17453292519943295,-0.35855572509765626,-0.35855572509765626,-0.35855572509765626,0.27698621771937626,0.006970824153282406,0.0,-6.6787261962890625
1783505103425368166,1783505103.425368,9,0.026179936699320342,-0.17453292519943295,-0.3605759251912435,-0.3605759251912435,-0.3605759251912435,0.27698621771937626,0.007072024274705417,0.0,-6.6787261962890625
1783505103527677430,1783505103.5276775,9,0.03316125329117874,-0.17627824446457319,-0.3625961252848307,-0.3625961252848307,-0.3625961252848307,0.2787315369845165,0.006970824153282406,0.0,-6.6787261962890625
1783505103626079739,1783505103.6260798,9,0.04014257196363174,-0.17802358037447025,-0.364616325378418,-0.364616325378418,-0.364616325378418,0.2804768728944136,0.006920224092570901,0.0,-6.6787261962890625
1783505103728163047,1783505103.728163,9,0.047123886474895536,-0.17802358037447025,-0.3666365254720052,-0.3666365254720052,-0.3666365254720052,0.2804768728944136,0.006920224092570901,0.0,-6.6787261962890625
1783505103826573682,1783505103.8265736,9,0.05585053273486718,-0.17802358037447025,-0.3686567255655924,-0.3686567255655924,-0.3686567255655924,0.2804768728944136,0.006970824153282406,0.0,-6.6787261962890625
1783505103929284323,1783505103.9292843,9,0.06283185140732019,-0.17802358037447025,-0.36966666666666664,-0.36966666666666664,-0.36966666666666664,0.2804768728944136,0.006970824153282406,0.0,-6.6787261962890625
1783505104027350789,1783505104.027351,9,0.07155849766729183,-0.17976889963961049,-0.3716868667602539,-0.3716868667602539,-0.3716868667602539,0.2822221921595538,0.006970824153282406,0.0,-6.6787261962890625
1783505104125738650,1783505104.1257389,9,0.08028514392726348,-0.17976889963961049,-0.37370706685384114,-0.37370706685384114,-0.37370706685384114,0.2822221921595538,0.007122624335416923,0.0,-6.6787261962890625
1783505104228730380,1783505104.2287304,9,0.08726645427733808,-0.17976889963961049,-0.37572726694742836,-0.37572726694742836,-0.37572726694742836,0.2822221921595538,0.007223824456839933,0.0,-6.6787261962890625
1783505104326893648,1783505104.3268936,9,0.09599310053730972,-0.18151423554950755,-0.3767375259399414,-0.3767375259399414,-0.3767375259399414,0.28396752806945086,0.007223824456839933,0.0,-6.6787261962890625
1783505104427979385,1783505104.4279792,9,0.10297441920976272,-0.18151423554950755,-0.37875772603352864,-0.37875772603352864,-0.37875772603352864,0.28396752806945086,0.007223824456839933,0.0,-6.6787261962890625
1783505104527331935,1783505104.5273318,9,0.11170106546973436,-0.18151423554950755,-0.37976766713460286,-0.37976766713460286,-0.37976766713460286,0.28396752806945086,0.007223824456839933,0.0,-6.6787261962890625
1783505104629610159,1783505104.6296103,9,0.12042771172970601,-0.17976889963961049,-0.3817878672281901,-0.3817878672281901,-0.3817878672281901,0.2822221921595538,0.007223824456839933,0.0,-6.6787261962890625
1783505104728211984,1783505104.7282119,9,0.127409030402159,-0.18151423554950755,-0.38279812622070314,-0.38279812622070314,-0.38279812622070314,0.28396752806945086,0.006818890813093385,0.0,-6.6787261962890625
1783505104826361095,1783505104.8263612,9,0.13613567666213067,-0.18151423554950755,-0.38380806732177736,-0.38380806732177736,-0.38380806732177736,0.28396752806945086,0.0033265545176179765,0.0,-6.6787261962890625
1783505104928607160,1783505104.9286072,9,0.1448623145997239,-0.18151423554950755,-0.3858282674153646,-0.3858282674153646,-0.3858282674153646,0.28396752806945086,-0.004316185178691421,0.0,-6.6787261962890625
1783505105027158790,1783505105.0271587,9,0.1518436415945553,-0.18151423554950755,-0.3868385264078776,-0.3868385264078776,-0.3868385264078776,0.28396752806945086,-0.013072525684817453,0.0,-6.6787261962890625
1783505105129364066,1783505105.129364,9,0.16057028785452696,-0.18151423554950755,-0.3878484675089518,-0.3878484675089518,-0.3878484675089518,0.28396752806945086,-0.022284399895401538,0.0,-6.6787261962890625
1783505105228053956,1783505105.228054,9,0.16929693411449862,-0.17976889963961049,-0.3898686676025391,-0.3898686676025391,-0.3898686676025391,0.2822221921595538,-0.03149627410598562,0.0,-6.6787261962890625
1783505105330152502,1783505105.3301525,9,0.17627824446457319,-0.17976889963961049,-0.3918890266418457,-0.3918890266418457,-0.3918890266418457,0.2822221921595538,-0.041720415846908825,0.0,-6.6787261962890625
1783505105428450072,1783505105.42845,9,0.18325955481464778,-0.17976889963961049,-0.39390922673543294,-0.39390922673543294,-0.39390922673543294,0.2822221921595538,-0.053513558944052214,0.0,-6.6787261962890625
1783505105526933593,1783505105.5269334,9,0.1902408818094792,-0.17976889963961049,-0.39592942682902016,-0.39592942682902016,-0.39592942682902016,0.2822221921595538,-0.064496967911757,0.0,-6.6787261962890625
1783505105629194986,1783505105.629195,9,0.19547685624965674,-0.17976889963961049,-0.39794962692260744,-0.39794962692260744,-0.39794962692260744,0.2822221921595538,-0.077251778478528,0.0,-6.6787261962890625
1783505105727537702,1783505105.7275376,9,0.20245818324448814,-0.17976889963961049,-0.39996982701619466,-0.39996982701619466,-0.39996982701619466,0.2822221921595538,-0.08671678615072412,0.0,-6.6787261962890625
1783505105829701410,1783505105.8297014,9,0.2076941743294225,-0.17976889963961049,-0.4030001271565755,-0.4030001271565755,-0.4030001271565755,0.2822221921595538,-0.09866172943000202,0.0,-6.6787261962890625
1783505105928253610,1783505105.9282537,9,0.2146754846794971,-0.17976889963961049,-0.4060304272969564,-0.4060304272969564,-0.4060304272969564,0.2822221921595538,-0.10954393827628381,0.0,-6.6787261962890625
1783505106030383675,1783505106.0303836,9,0.21991147576443143,-0.17976889963961049,-0.4080506273905436,-0.4080506273905436,-0.4080506273905436,0.2822221921595538,-0.12290608272964738,0.0,-6.6787261962890625
1783505106128931096,1783505106.128931,9,0.22689278611450603,-0.17976889963961049,-0.41108092753092446,-0.41108092753092446,-0.41108092753092446,0.2822221921595538,-0.13338335793218262,0.0,-6.6787261962890625
1783505106231420177,1783505106.2314203,9,0.23387411310933742,-0.17976889963961049,-0.4141112276713053,-0.4141112276713053,-0.4141112276713053,0.2822221921595538,-0.14467036726415644,0.0,-6.6787261962890625
1783505106329724870,1783505106.329725,9,0.23911008754951496,-0.17976889963961049,-0.4171415278116862,-0.4171415278116862,-0.4171415278116862,0.2822221921595538,-0.15595737659613026,0.0,-6.6787261962890625
1783505106427982134,1783505106.427982,9,0.24609141454434638,-0.17976889963961049,-0.42017182795206703,-0.42017182795206703,-0.42017182795206703,0.2822221921595538,-0.16744691932900463,0.0,-6.6787261962890625
1783505106530227806,1783505106.5302277,9,0.25307272489442095,-0.17976889963961049,-0.4232021280924479,-0.4232021280924479,-0.4232021280924479,0.2822221921595538,-0.17893646206187896,0.0,-6.6787261962890625
1783505106628478829,1783505106.6284788,9,0.25830871597935534,-0.17976889963961049,-0.42623242823282875,-0.42623242823282875,-0.42623242823282875,0.2822221921595538,-0.19062840503759934,0.0,-6.6787261962890625
1783505106730829439,1783505106.7308292,9,0.26529002632942994,-0.17976889963961049,-0.4292627283732096,-0.4292627283732096,-0.4292627283732096,0.2822221921595538,-0.20242154813474272,0.0,-6.6787261962890625
1783505106829251603,1783505106.8292515,9,0.27227135332426133,-0.17976889963961049,-0.43229302851359047,-0.43229302851359047,-0.43229302851359047,0.2822221921595538,-0.2140122909890401,0.0,-6.6787261962890625
1783505106931352523,1783505106.9313526,9,0.27750732776443887,-0.17976889963961049,-0.43532332865397133,-0.43532332865397133,-0.43532332865397133,0.2822221921595538,-0.22560303384333746,0.0,-6.6787261962890625
1783505107030034367,1783505107.0300345,9,0.28448865475927027,-0.17976889963961049,-0.4383536287943522,-0.4383536287943522,-0.4383536287943522,0.2822221921595538,-0.23704197651550032,0.0,-6.6787261962890625
1783505107132286480,1783505107.1322865,9,0.2897246291994478,-0.17976889963961049,-0.44138392893473305,-0.44138392893473305,-0.44138392893473305,0.2822221921595538,-0.24848078602960866,0.0,-6.6787261962890625
1783505107230508327,1783505107.2305083,9,0.2967059395495224,-0.17976889963961049,-0.4434041290283203,-0.4434041290283203,-0.4434041290283203,0.2822221921595538,-0.2600209288231945,0.0,-6.6787261962890625
1783505107329371453,1783505107.3293715,9,0.3019419472792136,-0.17976889963961049,-0.44542432912190755,-0.44542432912190755,-0.44542432912190755,0.2822221921595538,-0.2715610716167804,0.0,-6.6787261962890625
1783505107431960371,1783505107.4319603,9,0.30892325762928813,-0.17976889963961049,-0.4484546292622884,-0.4484546292622884,-0.4484546292622884,0.29967548467949706,-0.2828480809487542,0.0,-6.6787261962890625
1783505107529657028,1783505107.5296571,9,0.31415923206946567,-0.17976889963961049,-0.45047482935587563,-0.45047482935587563,-0.45047482935587563,0.29967548467949706,-0.29464135720395207,0.0,-6.6787261962890625
1783505107631879355,1783505107.6318793,9,0.3211405757090539,-0.17976889963961049,-0.4524950294494629,-0.4524950294494629,-0.4524950294494629,0.2822221921595538,-0.30618136683948344,0.0,-6.6787261962890625
1783505107730059092,1783505107.730059,9,0.3281218860591285,-0.17976889963961049,-0.4545152295430501,-0.4545152295430501,-0.4545152295430501,0.2822221921595538,-0.31777210969378084,0.0,-6.6787261962890625
1783505107828571587,1783505107.8285716,9,0.33335786049930605,-0.17976889963961049,-0.45552532958984376,-0.45552532958984376,-0.45552532958984376,0.29967548467949706,-0.32835058501773906,0.0,-6.6787261962890625
1783505107931642364,1783505107.9316423,9,0.34033917084938065,-0.17976889963961049,-0.457545529683431,-0.457545529683431,-0.457545529683431,0.29967548467949706,-0.3414597291675451,0.0,-6.6787261962890625
1783505108029368686,1783505108.0293686,9,0.3455751785790718,-0.17976889963961049,-0.4585556297302246,-0.4585556297302246,-0.4585556297302246,0.29967548467949706,-0.35198760443079186,0.0,-6.6787261962890625
1783505108131400474,1783505108.1314003,9,0.35255648892914637,-0.17976889963961049,-0.4595657297770182,-0.4595657297770182,-0.4595657297770182,0.29967548467949706,-0.3644894146940053,0.0,-6.6787261962890625
1783505108230034186,1783505108.230034,9,0.3577924633693239,-0.17976889963961049,-0.46259602991739907,-0.46259602991739907,-0.46259602991739907,0.29967548467949706,-0.37471355643492854,0.0,-6.6787261962890625
1783505108331997785,1783505108.3319976,9,0.36477380700891215,-0.17976889963961049,-0.46259602991739907,-0.46259602991739907,-0.46259602991739907,0.29967548467949706,-0.38610176588832534,0.0,-6.6787261962890625
1783505108430794836,1783505108.4307947,9,0.3700097814490897,-0.18151423554950755,-0.4656263300577799,-0.4656263300577799,-0.4656263300577799,0.3014208205893941,-0.39784430892475725,0.0,-6.6787261962890625
1783505108533115087,1783505108.5331151,9,0.3769910917991643,-0.18151423554950755,-0.46663643010457356,-0.46663643010457356,-0.46663643010457356,0.3014208205893941,-0.41075105283171726,0.0,-6.6787261962890625
1783505108631435138,1783505108.6314352,9,0.3822270995288554,-0.18151423554950755,-0.4686566301981608,-0.4686566301981608,-0.4686566301981608,0.3014208205893941,-0.421380128216387,0.0,-6.6787261962890625
1783505108729697030,1783505108.729697,9,0.38920840987893,-0.17976889963961049,-0.47067683029174806,-0.47067683029174806,-0.47067683029174806,0.29967548467949706,-0.4330214711313959,0.0,-6.6787261962890625
1783505108831969351,1783505108.8319693,9,0.39444438431910755,-0.18151423554950755,-0.4726970303853353,-0.4726970303853353,-0.4726970303853353,0.3014208205893941,-0.44476401416782774,0.0,-6.6787261962890625
1783505108930315611,1783505108.9303155,9,0.40142569466918215,-0.18151423554950755,-0.47572733052571614,-0.47572733052571614,-0.47572733052571614,0.3014208205893941,-0.45625355690070213,0.0,-6.6787261962890625
1783505109041271160,1783505109.041271,9,0.40666170239887334,-0.18151423554950755,-0.47774753061930336,-0.47774753061930336,-0.47774753061930336,0.3014208205893941,-0.46784429975499947,0.0,-6.6787261962890625
1783505109130326387,1783505109.1303263,9,0.4118976768390509,-0.18151423554950755,-0.4807778307596842,-0.4807778307596842,-0.4807778307596842,0.3014208205893941,-0.47928317584813507,0.0,-6.6787261962890625
1783505109229504094,1783505109.229504,9,0.4188789871891255,-0.18151423554950755,-0.4827980308532715,-0.4827980308532715,-0.4827980308532715,0.3014208205893941,-0.49092451876314397,0.0,-6.6787261962890625
1783505109333516845,1783505109.3335168,9,0.42411499491881666,-0.18151423554950755,-0.48582833099365236,-0.48582833099365236,-0.48582833099365236,0.3014208205893941,-0.5026670617995759,0.0,-6.6787261962890625
1783505109433960358,1783505109.4339604,9,0.4310963052688912,-0.18151423554950755,-0.4888586311340332,-0.4888586311340332,-0.4888586311340332,0.3014208205893941,-0.5144602714757465,0.0,-6.6787261962890625
1783505109531919488,1783505109.5319192,9,0.43633227970906874,-0.18151423554950755,-0.4918889312744141,-0.4918889312744141,-0.4918889312744141,0.3014208205893941,-0.5263546812733401,0.0,-6.6787261962890625
1783505109630387327,1783505109.6303873,9,0.44331359005914334,-0.18151423554950755,-0.49491923141479494,-0.49491923141479494,-0.49491923141479494,0.3014208205893941,-0.5379454241276375,0.0,-6.6787261962890625
1783505109732925960,1783505109.732926,9,0.4485495977888345,-0.18151423554950755,-0.4979495315551758,-0.4979495315551758,-0.4979495315551758,0.3014208205893941,-0.5498904339859426,0.0,-6.6787261962890625
1783505109831033339,1783505109.8310332,9,0.45378557222901206,-0.18151423554950755,-0.5009798316955566,-0.5009798316955566,-0.5009798316955566,0.3014208205893941,-0.5615824435406903,0.0,-6.6787261962890625
1783505109933450393,1783505109.9334505,9,0.46076688257908666,-0.18151423554950755,-0.5040101318359375,-0.5040101318359375,-0.5040101318359375,0.3014208205893941,-0.5732237864556992,0.0,-6.6787261962890625
1783505110032439544,1783505110.0324395,9,0.46600289030877784,-0.18151423554950755,-0.5070405909220378,-0.5070405909220378,-0.5070405909220378,0.3014208205893941,-0.5847132626095463,0.0,-6.6787261962890625
1783505110130431105,1783505110.1304312,9,0.4712388647489554,-0.18151423554950755,-0.5100707321166992,-0.5100707321166992,-0.5100707321166992,0.3014208205893941,-0.5951398711723427,0.0,-6.6787261962890625
1783505110232653631,1783505110.2326536,9,0.4782201750990299,-0.1832595714594046,-0.5131011912027995,-0.5131011912027995,-0.5131011912027995,0.3031661564992912,-0.6081984152614373,0.0,-6.6787261962890625
1783505110330996845,1783505110.3309968,9,0.4834561828287211,-0.18151423554950755,-0.5161313323974609,-0.5161313323974609,-0.5161313323974609,0.3014208205893941,-0.6187768905853955,0.0,-6.6787261962890625
1783505110433365646,1783505110.4333658,9,0.48869215726889864,-0.18151423554950755,-0.5181515324910482,-0.5181515324910482,-0.5181515324910482,0.3014208205893941,-0.6311268340874472,0.0,-6.6787261962890625
1783505110532015538,1783505110.5320156,9,0.49567346761897324,-0.1832595714594046,-0.5211819915771484,-0.5211819915771484,-0.5211819915771484,0.3031661564992912,-0.6355809044315774,0.0,-6.6787261962890625
1783505110633723193,1783505110.633723,9,0.5009094753486644,-0.1832595714594046,-0.5232021916707357,-0.5232021916707357,-0.5232021916707357,0.3031661564992912,-0.6362389049579088,0.0,-6.6787261962890625
1783505110732075294,1783505110.7320752,9,0.5061454497888419,-0.1832595714594046,-0.5262323328653972,-0.5262323328653972,-0.5262323328653972,0.3031661564992912,-0.6366944386623669,0.0,-6.6787261962890625
1783505110834249398,1783505110.8342495,9,0.5148720960488136,-0.1832595714594046,-0.5282525329589843,-0.5282525329589843,-0.5282525329589843,0.3031661564992912,-0.635175970787831,0.0,-6.6787261962890625
1783505110932759517,1783505110.9327595,9,0.5201080704889911,-0.1832595714594046,-0.5302727330525716,-0.5302727330525716,-0.5302727330525716,0.3031661564992912,-0.6348723038445346,0.0,-6.6787261962890625
1783505111031527941,1783505111.031528,9,0.5253440782186823,-0.1832595714594046,-0.5322929331461589,-0.5322929331461589,-0.5322929331461589,0.3031661564992912,-0.6353784376097041,0.0,-6.6787261962890625
1783505111133978767,1783505111.1339788,9,0.5323253885687569,-0.1832595714594046,-0.5333031921386718,-0.5333031921386718,-0.5333031921386718,0.3031661564992912,-0.6354290376704157,0.0,-6.6787261962890625
1783505111231724965,1783505111.231725,9,0.5375613630089344,-0.1832595714594046,-0.5353233922322591,-0.5353233922322591,-0.5353233922322591,0.3031661564992912,-0.6349735039659576,0.0,-6.6787261962890625
1783505111333835619,1783505111.3338356,9,0.5427973707386256,-0.1832595714594046,-0.5363333333333333,-0.5363333333333333,-0.5363333333333333,0.3031661564992912,-0.6319872348566246,0.0,-6.6787261962890625
1783505111432961668,1783505111.4329617,9,0.5497786810887002,-0.1832595714594046,-0.5383535334269206,-0.5383535334269206,-0.5383535334269206,0.3031661564992912,-0.6273812977513326,0.0,-6.6787261962890625
1783505111531235139,1783505111.531235,9,0.5550146555288777,-0.1832595714594046,-0.5393637924194336,-0.5393637924194336,-0.5393637924194336,0.3031661564992912,-0.6210544925286585,0.0,-6.6787261962890625
1783505111633524391,1783505111.6335244,9,0.5619959658789523,-0.1832595714594046,-0.5413839925130208,-0.5413839925130208,-0.5413839925130208,0.3031661564992912,-0.6128549524274408,0.0,-6.6787261962890625
1783505111731987940,1783505111.731988,9,0.5672319403191298,-0.1832595714594046,-0.542393933614095,-0.542393933614095,-0.542393933614095,0.3031661564992912,-0.6044023454436382,0.0,-6.6787261962890625
1783505111834221286,1783505111.8342214,9,0.5724679813383347,-0.1832595714594046,-0.5444141337076823,-0.5444141337076823,-0.5444141337076823,0.3031661564992912,-0.5961015386419704,0.0,-6.6787261962890625
1783505111932662123,1783505111.932662,9,0.5794492583988956,-0.1832595714594046,-0.5464343338012695,-0.5464343338012695,-0.5464343338012695,0.3031661564992912,-0.587041531192548,0.0,-6.6787261962890625
1783505112034269839,1783505112.03427,9,0.5846852328390731,-0.18500489072454485,-0.5494647928873698,-0.5494647928873698,-0.5494647928873698,0.30491147576443145,-0.5779815237431257,0.0,-6.6787261962890625
1783505112135443146,1783505112.1354432,9,0.5916665764786614,-0.18500489072454485,-0.551484992980957,-0.551484992980957,-0.551484992980957,0.30491147576443145,-0.568263515767372,0.0,-6.6787261962890625
1783505112235286516,1783505112.2352865,9,0.5986479201182496,-0.18500489072454485,-0.5535051930745443,-0.5535051930745443,-0.5535051930745443,0.30491147576443145,-0.5581912407876106,0.0,-6.6787261962890625
1783505112333864822,1783505112.3338647,9,0.6038838945584272,-0.18500489072454485,-0.5565353342692058,-0.5565353342692058,-0.5565353342692058,0.30491147576443145,-0.5482707659899837,0.0,-6.6787261962890625
1783505112432839204,1783505112.4328392,9,0.6091198689986047,-0.18500489072454485,-0.559565793355306,-0.559565793355306,-0.559565793355306,0.30491147576443145,-0.5375910905446024,0.0,-6.6787261962890625
1783505112534694586,1783505112.5346947,9,0.6161012126381928,-0.18500489072454485,-0.5625959345499675,-0.5625959345499675,-0.5625959345499675,0.30491147576443145,-0.5266077481559249,0.0,-6.6787261962890625
1783505112633365226,1783505112.6333652,9,0.6213371870783704,-0.18500489072454485,-0.5656263936360677,-0.5656263936360677,-0.5656263936360677,0.30491147576443145,-0.5158774726498321,0.0,-6.6787261962890625
1783505112735347508,1783505112.7353475,9,0.6265731615185479,-0.18500489072454485,-0.5686565348307292,-0.5686565348307292,-0.5686565348307292,0.30491147576443145,-0.5048941302611546,0.0,-6.6787261962890625
1783505112832795733,1783505112.8327956,9,0.6335545051581362,-0.18500489072454485,-0.5716869939168294,-0.5716869939168294,-0.5716869939168294,0.30491147576443145,-0.49380952117202676,0.0,-6.6787261962890625
1783505112935039698,1783505112.9350398,9,0.6405357822186971,-0.18500489072454485,-0.5747171351114909,-0.5747171351114909,-0.5747171351114909,0.30491147576443145,-0.48343357924896907,0.0,-6.6787261962890625
1783505113034309958,1783505113.0343099,9,0.6457717566588747,-0.18500489072454485,-0.5787578531901042,-0.5787578531901042,-0.5787578531901042,0.30491147576443145,-0.4720959032772565,0.0,-6.6787261962890625
1783505113136579160,1783505113.136579,9,0.6510077976780795,-0.18500489072454485,-0.5817879943847656,-0.5817879943847656,-0.5817879943847656,0.30491147576443145,-0.45964469307475453,0.0,-6.6787261962890625
1783505113234963640,1783505113.2349637,9,0.6579890747386404,-0.18500489072454485,-0.5848181355794271,-0.5848181355794271,-0.5848181355794271,0.30491147576443145,-0.44810455028116863,0.0,-6.6787261962890625
1783505113333675296,1783505113.3336751,9,0.663225049178818,-0.18500489072454485,-0.5878485946655273,-0.5878485946655273,-0.5878485946655273,0.30491147576443145,-0.43788040854024546,0.0,-6.6787261962890625
1783505113435600730,1783505113.4356008,9,0.6702063928184062,-0.18500489072454485,-0.5908790537516276,-0.5908790537516276,-0.5908790537516276,0.30491147576443145,-0.42613786550381355,0.0,-6.6787261962890625
1783505113534178143,1783505113.534178,9,0.6754423672585838,-0.1867502266344419,-0.593909194946289,-0.593909194946289,-0.593909194946289,0.3066568116743285,-0.4144459225280932,0.0,-6.6787261962890625
1783505113636725930,1783505113.636726,9,0.6806783416987613,-0.1867502266344419,-0.5959293950398763,-0.5959293950398763,-0.5959293950398763,0.3066568116743285,-0.4026021793702383,0.0,-6.6787261962890625
1783505113734788974,1783505113.734789,9,0.6876596853383495,-0.1867502266344419,-0.5989598541259765,-0.5989598541259765,-0.5989598541259765,0.3066568116743285,-0.3908089031150404,0.0,-6.6787261962890625
1783505113833178954,1783505113.833179,9,0.6928956597785271,-0.1867502266344419,-0.600979736328125,-0.600979736328125,-0.600979736328125,0.3066568116743285,-0.37916756020003156,0.0,-6.6787261962890625
1783505113935268377,1783505113.9352684,9,0.6998770034181152,-0.1867502266344419,-0.6030002543131511,-0.6030002543131511,-0.6030002543131511,0.3066568116743285,-0.3677287506859232,0.0,-6.6787261962890625
1783505114033687211,1783505114.0336874,9,0.7051129778582927,-0.1867502266344419,-0.6050201365152995,-0.6050201365152995,-0.6050201365152995,0.3066568116743285,-0.3556824741271678,0.0,-6.6787261962890625
1783505114135986740,1783505114.1359868,9,0.7103489522984703,-0.1867502266344419,-0.6070406545003255,-0.6070406545003255,-0.6070406545003255,0.3066568116743285,-0.34363619756841235,0.0,-6.6787261962890625
1783505114234374294,1783505114.2343743,9,0.7173302959380585,-0.1867502266344419,-0.6080505956013997,-0.6080505956013997,-0.6080505956013997,0.3066568116743285,-0.33153932094894545,0.0,-6.6787261962890625
1783505114336722385,1783505114.3367224,9,0.7225662703782361,-0.1867502266344419,-0.610070795694987,-0.610070795694987,-0.610070795694987,0.3066568116743285,-0.3195436444509015,0.0,-6.6787261962890625
1783505114435697697,1783505114.4356976,9,0.7278022448184136,-0.1867502266344419,-0.6120909957885742,-0.6120909957885742,-0.6120909957885742,0.3066568116743285,-0.3074467678314346,0.0,-6.6787261962890625
1783505114537525296,1783505114.5375252,9,0.7347835884580018,-0.1867502266344419,-0.6131012547810872,-0.6131012547810872,-0.6131012547810872,0.3066568116743285,-0.2953498912119677,0.0,-6.6787261962890625
1783505114635433437,1783505114.6354334,9,0.7400195628981794,-0.1867502266344419,-0.6141111958821615,-0.6141111958821615,-0.6141111958821615,0.3066568116743285,-0.28330361465321224,0.0,-6.6787261962890625
1783505114734125877,1783505114.7341259,9,0.7452555373383569,-0.1867502266344419,-0.6161313959757487,-0.6161313959757487,-0.6161313959757487,0.3066568116743285,-0.2715104715560689,0.0,-6.6787261962890625
1783505114836299949,1783505114.8363001,9,0.7504915117785345,-0.1867502266344419,-0.6171416549682617,-0.6171416549682617,-0.6171416549682617,0.3066568116743285,-0.25961599517944794,0.0,-6.6787261962890625
1783505114934807099,1783505114.934807,9,0.7574728554181227,-0.1867502266344419,-0.619161855061849,-0.619161855061849,-0.619161855061849,0.3066568116743285,-0.24762031868140405,0.0,-6.6787261962890625
1783505115037148196,1783505115.0371482,9,0.7627088298583002,-0.1867502266344419,-0.6221919962565104,-0.6221919962565104,-0.6221919962565104,0.3066568116743285,-0.23552344206193712,0.0,-6.6787261962890625
1783505115135504451,1783505115.1355045,9,0.7679448042984778,-0.18849554589958215,-0.6242121963500976,-0.6242121963500976,-0.6242121963500976,0.3084021309394687,-0.22352789872194773,0.0,-6.6787261962890625
1783505115237730029,1783505115.23773,9,0.7731808453176825,-0.18849554589958215,-0.6262323964436849,-0.6262323964436849,-0.6262323964436849,0.3084021309394687,-0.2114310221024808,0.0,-6.6787261962890625
1783505115336183057,1783505115.336183,9,0.7801621223782436,-0.18849554589958215,-0.6282525965372722,-0.6282525965372722,-0.6282525965372722,0.3084021309394687,-0.20059941331691053,0.0,-6.6787261962890625
1783505115433972484,1783505115.4339726,9,0.7853980968184211,-0.18849554589958215,-0.6312830556233724,-0.6312830556233724,-0.6312830556233724,0.3084021309394687,-0.1887050700983441,0.0,-6.6787261962890625
1783505115536247866,1783505115.5362477,9,0.7906340712585986,-0.18849554589958215,-0.6343131968180339,-0.6343131968180339,-0.6343131968180339,0.3084021309394687,-0.17701312712262374,0.0,-6.6787261962890625
1783505115634540902,1783505115.6345408,9,0.7958701122778034,-0.18849554589958215,-0.6373436559041341,-0.6373436559041341,-0.6373436559041341,0.3084021309394687,-0.1656753845718839,0.0,-6.6787261962890625
1783505115737181162,1783505115.7371812,9,0.8011060867179809,-0.18849554589958215,-0.6403737970987956,-0.6403737970987956,-0.6403737970987956,0.3084021309394687,-0.1544389753006216,0.0,-6.6787261962890625
1783505115835180354,1783505115.8351803,9,0.8080873637785418,-0.18849554589958215,-0.6434042561848958,-0.6434042561848958,-0.6434042561848958,0.3084021309394687,-0.14340496627220528,0.0,-6.6787261962890625
1783505115937420831,1783505115.9374208,9,0.8133234047977467,-0.18849554589958215,-0.6464343973795573,-0.6464343973795573,-0.6464343973795573,0.3084021309394687,-0.1322698902804205,0.0,-6.6787261962890625
1783505116038302276,1783505116.0383022,9,0.8185593792379242,-0.18849554589958215,-0.6494648564656575,-0.6494648564656575,-0.6494648564656575,0.3084021309394687,-0.12093214772968065,0.0,-6.6787261962890625
1783505116138608957,1783505116.138609,9,0.8237953536781017,-0.18849554589958215,-0.653505256652832,-0.653505256652832,-0.653505256652832,0.3084021309394687,-0.10934140487538328,0.0,-6.6787261962890625
1783505116237707741,1783505116.2377079,9,0.83077669731769,-0.18849554589958215,-0.6565353978474935,-0.6565353978474935,-0.6565353978474935,0.3084021309394687,-0.09744706165681688,0.0,-6.6787261962890625
1783505116335207942,1783505116.335208,9,0.8360126717578675,-0.18849554589958215,-0.6595658569335937,-0.6595658569335937,-0.6595658569335937,0.3084021309394687,-0.0857043854623305,0.0,-6.6787261962890625
1783505116437456683,1783505116.4374566,9,0.8412486461980451,-0.18849554589958215,-0.6625959981282552,-0.6625959981282552,-0.6625959981282552,0.3084021309394687,-0.07391124236518712,0.0,-6.6787261962890625
1783505116535871769,1783505116.5358717,9,0.8464846206382226,-0.18849554589958215,-0.6656264572143554,-0.6656264572143554,-0.6656264572143554,0.3084021309394687,-0.06186496580643169,0.0,-6.6787261962890625
1783505116638199459,1783505116.6381996,9,0.8517205950784001,-0.18849554589958215,-0.6686565984090169,-0.6686565984090169,-0.6686565984090169,0.3084021309394687,-0.0499706225878653,0.0,-6.6787261962890625
1783505116736713071,1783505116.736713,9,0.8587019387179884,-0.1902408818094792,-0.6716870574951171,-0.6716870574951171,-0.6716870574951171,0.3101474668493658,-0.037519412385363334,0.0,-6.6787261962890625
1783505116834843870,1783505116.8348439,9,0.8639379131581659,-0.1902408818094792,-0.6747171986897786,-0.6747171986897786,-0.6747171986897786,0.3101474668493658,-0.025220002364995883,0.0,-6.6787261962890625
1783505116937261871,1783505116.9372618,9,0.8691738875983435,-0.1902408818094792,-0.6767373987833659,-0.6767373987833659,-0.6767373987833659,0.3101474668493658,-0.012819525381259925,0.0,-6.6787261962890625
1783505117035629346,1783505117.0356293,9,0.8744099286175482,-0.1902408818094792,-0.6787575988769531,-0.6787575988769531,-0.6787575988769531,0.3101474668493658,-0.0005707154216039807,0.0,-6.6787261962890625
1783505117137860304,1783505117.1378603,9,0.8796459030577257,-0.1902408818094792,-0.6807777989705404,-0.6807777989705404,-0.6807777989705404,0.3101474668493658,0.011627361319285955,0.0,-6.6787261962890625
1783505117236344859,1783505117.2363448,9,0.8848818774979033,-0.1902408818094792,-0.6827979990641276,-0.6827979990641276,-0.6827979990641276,0.3101474668493658,0.024027838303021912,0.0,-6.6787261962890625
1783505117338535962,1783505117.338536,9,0.8901178519380808,-0.1902408818094792,-0.6848181991577148,-0.6848181991577148,-0.6848181991577148,0.3101474668493658,0.03627664826267785,0.0,-6.6787261962890625
1783505117436898488,1783505117.4368985,9,0.897099195577669,-0.1902408818094792,-0.6858284581502279,-0.6858284581502279,-0.6858284581502279,0.3101474668493658,0.04827232476072177,0.0,-6.6787261962890625
1783505117539311328,1783505117.5393114,9,0.9023351700178466,-0.1902408818094792,-0.6878486582438151,-0.6878486582438151,-0.6878486582438151,0.3101474668493658,0.06036920138018869,0.0,-6.6787261962890625
1783505117637703199,1783505117.6377032,9,0.9075711444580241,-0.1902408818094792,-0.6888585993448894,-0.6888585993448894,-0.6888585993448894,0.3101474668493658,0.07266847824250164,0.0,-6.6787261962890625
1783505117736169190,1783505117.736169,9,0.9128071188982017,-0.19198621771937624,-0.6908787994384765,-0.6908787994384765,-0.6908787994384765,0.31189280275926284,0.08370248727091793,0.0,-6.6787261962890625
1783505117838919747,1783505117.8389196,9,0.9180431599174065,-0.19198621771937624,-0.6918890584309896,-0.6918890584309896,-0.6918890584309896,0.31189280275926284,0.09731776518589354,0.0,-6.6787261962890625
1783505117937044655,1783505117.9370446,9,0.923279134357584,-0.19198621771937624,-0.6939092585245769,-0.6939092585245769,-0.6939092585245769,0.31189280275926284,0.10825044093483233,0.0,-6.6787261962890625
1783505118039221921,1783505118.039222,9,0.930260411418145,-0.19198621771937624,-0.6949191996256511,-0.6949191996256511,-0.6949191996256511,0.31189280275926284,0.12196705212928544,0.0,-6.6787261962890625
1783505118137378497,1783505118.1373785,9,0.9354964524373497,-0.19198621771937624,-0.6969393997192382,-0.6969393997192382,-0.6969393997192382,0.31189280275926284,0.1328997278782242,0.0,-6.6787261962890625
1783505118239780657,1783505118.2397807,9,0.9407324268775272,-0.19198621771937624,-0.6989595998128255,-0.6989595998128255,-0.6989595998128255,0.31189280275926284,0.1461102053075078,0.0,-6.6787261962890625
1783505118338006424,1783505118.3380065,9,0.9459684013177048,-0.19198621771937624,-0.7009797999064128,-0.7009797999064128,-0.7009797999064128,0.31189280275926284,0.15699228099573506,0.0,-6.6787261962890625
1783505118440240116,1783505118.4402401,9,0.9512043757578823,-0.19198621771937624,-0.704010258992513,-0.704010258992513,-0.704010258992513,0.31189280275926284,0.17055695884999916,0.0,-6.6787261962890625
1783505118538196636,1783505118.5381968,9,0.9564403501980598,-0.19198621771937624,-0.7060304590861003,-0.7060304590861003,-0.7060304590861003,0.31189280275926284,0.1818441013400275,0.0,-6.6787261962890625
1783505118637062200,1783505118.637062,9,0.9634216938376481,-0.1937315369845165,-0.7090609181722005,-0.7090609181722005,-0.7090609181722005,0.3136381220244031,0.19429517838447494,0.0,-6.6787261962890625
1783505118739342780,1783505118.739343,9,0.9686576682778256,-0.1937315369845165,-0.712091059366862,-0.712091059366862,-0.712091059366862,0.3136381220244031,0.2066451884655539,0.0,-6.6787261962890625
1783505118837820923,1783505118.837821,9,0.9738936427180032,-0.1937315369845165,-0.7151212005615234,-0.7151212005615234,-0.7151212005615234,0.3136381220244031,0.21894446532786685,0.0,-6.6787261962890625
1783505118939933316,1783505118.9399335,9,0.979129683737208,-0.1937315369845165,-0.7181516596476237,-0.7181516596476237,-0.7181516596476237,0.3136381220244031,0.23144627559108033,0.0,-6.6787261962890625
1783505119038916692,1783505119.0389166,9,0.9843656581773855,-0.1937315369845165,-0.721182118733724,-0.721182118733724,-0.721182118733724,0.3136381220244031,0.24354315221054726,0.0,-6.6787261962890625
1783505119136957340,1783505119.1369574,9,0.9896016326175631,-0.1937315369845165,-0.7242122599283854,-0.7242122599283854,-0.7242122599283854,0.3136381220244031,0.25579196217020317,0.0,-6.6787261962890625
1783505119238648027,1783505119.2386482,9,0.9948376070577406,-0.1937315369845165,-0.7282526601155599,-0.7282526601155599,-0.7282526601155599,0.3136381220244031,0.26809123903251614,0.0,-6.6787261962890625
1783505119337776305,1783505119.3377764,9,1.000073581497918,-0.1937315369845165,-0.7312828013102214,-0.7312828013102214,-0.7312828013102214,0.3136381220244031,0.2803399158341176,0.0,-6.6787261962890625
1783505119440075620,1783505119.4400756,9,1.005309622517123,-0.1937315369845165,-0.7343132603963216,-0.7343132603963216,-0.7343132603963216,0.3136381220244031,0.29268992591519655,0.0,-6.6787261962890625
1783505119538428216,1783505119.538428,9,1.0105455969573005,-0.1937315369845165,-0.7373437194824218,-0.7373437194824218,-0.7373437194824218,0.3136381220244031,0.305292936299833,0.0,-6.6787261962890625
1783505119640293794,1783505119.6402938,9,1.0175268740178613,-0.1937315369845165,-0.7403738606770833,-0.7403738606770833,-0.7403738606770833,0.3136381220244031,0.3178959466844695,0.0,-6.6787261962890625
1783505119738639978,1783505119.7386398,9,1.0210175458376556,-0.1937315369845165,-0.7434040018717448,-0.7434040018717448,-0.7434040018717448,0.3136381220244031,0.33034715688697147,0.0,-6.6787261962890625
1783505119840914416,1783505119.8409145,9,1.0279988894772438,-0.1937315369845165,-0.746434460957845,-0.746434460957845,-0.746434460957845,0.3136381220244031,0.34219090004482633,0.0,-6.6787261962890625
1783505119939517854,1783505119.939518,9,1.0332348639174214,-0.19547687289441354,-0.7494649200439453,-0.7494649200439453,-0.7494649200439453,0.3153834579343001,0.3534780425348547,0.0,-6.6787261962890625
1783505120037487648,1783505120.0374875,9,1.038470838357599,-0.19547687289441354,-0.7524950612386068,-0.7524950612386068,-0.7524950612386068,0.3153834579343001,0.36107018217045256,0.0,-6.6787261962890625
1783505120140154105,1783505120.1401541,9,1.0437068127977764,-0.19547687289441354,-0.754515261332194,-0.754515261332194,-0.754515261332194,0.3153834579343001,0.3628923169882848,0.0,-6.6787261962890625
1783505120238911904,1783505120.238912,9,1.048942787237954,-0.19547687289441354,-0.7575457204182943,-0.7575457204182943,-0.7575457204182943,0.33283675045424344,0.36258858346596123,0.0,-6.6787261962890625
1783505120341258548,1783505120.3412585,9,1.0559241308775422,-0.19547687289441354,-0.7595656026204427,-0.7595656026204427,-0.7595656026204427,0.3153834579343001,0.3615763159356221,0.0,-6.6787261962890625
1783505120439737631,1783505120.4397376,9,1.0611601053177198,-0.19547687289441354,-0.7615861206054687,-0.7615861206054687,-0.7615861206054687,0.3153834579343001,0.3613739156927761,0.0,-6.6787261962890625
1783505120538077002,1783505120.5380769,9,1.0663960797578973,-0.19722219215955378,-0.7636060028076171,-0.7636060028076171,-0.7636060028076171,0.3171287771994404,0.3613739156927761,0.0,-6.6787261962890625
1783505120640273462,1783505120.6402733,9,1.0733774233974853,-0.19722219215955378,-0.7646162618001302,-0.7646162618001302,-0.7646162618001302,0.3345820697193837,0.3613739156927761,0.0,-6.6787261962890625
1783505120742634002,1783505120.742634,9,1.0786133978376629,-0.19722219215955378,-0.7666364618937175,-0.7666364618937175,-0.7666364618937175,0.3345820697193837,0.3613739156927761,0.0,-6.6787261962890625
1783505120840930552,1783505120.8409305,9,1.0838493722778404,-0.19722219215955378,-0.7686566619873046,-0.7686566619873046,-0.7686566619873046,0.3345820697193837,0.3613739156927761,0.0,-6.6787261962890625
1783505120939591027,1783505120.939591,9,1.0890854132970453,-0.19722219215955378,-0.7696669209798177,-0.7696669209798177,-0.7696669209798177,0.3345820697193837,0.3613739156927761,0.0,-6.6787261962890625
1783505121041635481,1783505121.0416355,9,1.0943213877372229,-0.19722219215955378,-0.7716868031819661,-0.7716868031819661,-0.7716868031819661,0.3345820697193837,0.3613739156927761,0.0,-6.6787261962890625
1783505121139950325,1783505121.1399503,9,1.0995573621774004,-0.19896752806945084,-0.7737073211669921,-0.7737073211669921,-0.7737073211669921,0.33632740562928076,0.3612219823525871,0.0,-6.6787261962890625
1783505121242254678,1783505121.2422545,9,1.104793336617578,-0.19896752806945084,-0.7757272033691406,-0.7757272033691406,-0.7757272033691406,0.33632740562928076,0.36117138229187556,0.0,-6.6787261962890625
1783505121340875268,1783505121.3408751,9,1.1100293110577555,-0.19896752806945084,-0.7777477213541667,-0.7777477213541667,-0.7777477213541667,0.33632740562928076,0.36117138229187556,0.0,-6.6787261962890625
1783505121439045238,1783505121.4390452,9,1.1152653520769602,-0.19896752806945084,-0.7807778625488281,-0.7807778625488281,-0.7807778625488281,0.33632740562928076,0.36117138229187556,0.0,-6.6787261962890625
1783505121541313203,1783505121.5413132,9,1.1205013265171377,-0.19896752806945084,-0.7838083216349284,-0.7838083216349284,-0.7838083216349284,0.33632740562928076,0.36117138229187556,0.0,-6.6787261962890625
1783505121639733706,1783505121.6397338,9,1.125737234378288,-0.19896752806945084,-0.7858285217285156,-0.7858285217285156,-0.7858285217285156,0.33632740562928076,0.36117138229187556,0.0,-6.6787261962890625
1783505121742181018,1783505121.742181,9,1.1309732753974928,-0.19896752806945084,-0.7888586629231771,-0.7888586629231771,-0.7888586629231771,0.33632740562928076,0.36117138229187556,0.0,-6.6787261962890625
1783505121840674839,1783505121.8406749,9,1.1362093164166975,-0.20071284733459108,-0.7918891220092773,-0.7918891220092773,-0.7918891220092773,0.338072724894421,0.36117138229187556,0.0,-6.6787261962890625
1783505121942824541,1783505121.9428244,9,1.141445224277848,-0.20071284733459108,-0.7959295221964519,-0.7959295221964519,-0.7959295221964519,0.338072724894421,0.36112078223116406,0.0,-6.6787261962890625
1783505122041319424,1783505122.0413194,9,1.1466812652970526,-0.20071284733459108,-0.7989596633911132,-0.7989596633911132,-0.7989596633911132,0.338072724894421,0.36112078223116406,0.0,-6.6787261962890625
1783505122143175401,1783505122.1431754,9,1.151917173158203,-0.20071284733459108,-0.8019901224772136,-0.8019901224772136,-0.8019901224772136,0.338072724894421,0.36112078223116406,0.0,-6.6787261962890625
1783505122242033679,1783505122.2420337,9,1.1554079115570244,-0.20071284733459108,-0.806030522664388,-0.806030522664388,-0.806030522664388,0.338072724894421,0.36107018217045256,0.0,-6.6787261962890625
1783505122340347860,1783505122.340348,9,1.1606438194181747,-0.20245818324448814,-0.8090606638590495,-0.8090606638590495,-0.8090606638590495,0.33981806080431803,0.3594504475954664,0.0,-6.6787261962890625
1783505122442371995,1783505122.442372,9,1.1658798604373795,-0.20245818324448814,-0.8120911229451497,-0.8120911229451497,-0.8120911229451497,0.33981806080431803,0.35545197753482144,0.0,-6.6787261962890625
1783505122540825489,1783505122.5408256,9,1.1711159014565842,-0.20245818324448814,-0.8151212641398112,-0.8151212641398112,-0.8151212641398112,0.33981806080431803,0.34796103802064654,0.0,-6.6787261962890625
1783505122643139690,1783505122.6431396,9,1.1763518093177345,-0.20245818324448814,-0.8181517232259115,-0.8181517232259115,-0.8181517232259115,0.33981806080431803,0.3365726954091952,0.0,-6.6787261962890625
1783505122741609826,1783505122.7416098,9,1.1833331529573228,-0.20245818324448814,-0.821181864420573,-0.821181864420573,-0.821181864420573,0.33981806080431803,0.32265368397189603,0.0,-6.6787261962890625
1783505122844388472,1783505122.8443882,9,1.1885691939765275,-0.20245818324448814,-0.8242123235066732,-0.8242123235066732,-0.8242123235066732,0.33981806080431803,0.3077224050042578,0.0,-6.6787261962890625
1783505122941755018,1783505122.941755,9,1.1938051018376779,-0.20245818324448814,-0.8262325236002604,-0.8262325236002604,-0.8262325236002604,0.33981806080431803,0.29289232615804256,0.0,-6.6787261962890625
1783505123040178095,1783505123.040178,9,1.1990411428568826,-0.20245818324448814,-0.8292626647949218,-0.8292626647949218,-0.8292626647949218,0.33981806080431803,0.27932764830377843,0.0,-6.6787261962890625
1783505123142578388,1783505123.1425784,9,1.204277050718033,-0.2042035191543852,-0.8312828648885091,-0.8312828648885091,-0.8312828648885091,0.3415633967142151,0.2685467727369742,0.0,-6.6787261962890625
1783505123240789364,1783505123.2407892,9,1.2077677891168543,-0.20245818324448814,-0.8343133239746093,-0.8343133239746093,-0.8343133239746093,0.33981806080431803,0.25812023075320495,0.0,-6.6787261962890625
1783505123343160362,1783505123.3431604,9,1.2112583943576212,-0.20245818324448814,-0.8363335240681966,-0.8363335240681966,-0.8363335240681966,0.33981806080431803,0.24875642320243185,0.0,-6.6787261962890625
1783505123441470726,1783505123.4414706,9,1.2130036969780045,-0.20245818324448814,-0.8383537241617839,-0.8383537241617839,-0.8383537241617839,0.33981806080431803,0.23711508028742298,0.0,-6.6787261962890625
1783505123543718000,1783505123.5437179,9,1.2130036969780045,-0.2042035191543852,-0.8393636652628581,-0.8393636652628581,-0.8393636652628581,0.3415633967142151,0.22243693478139676,0.0,-6.6787261962890625
1783505123642211239,1783505123.6422114,9,1.2147491327564424,-0.2042035191543852,-0.8413838653564453,-0.8413838653564453,-0.8413838653564453,0.3415633967142151,0.2058353211780608,0.0,-6.6787261962890625
1783505123740483821,1783505123.7404838,9,1.2130036969780045,-0.2042035191543852,-0.8434040654500325,-0.8434040654500325,-0.8434040654500325,0.3415633967142151,0.18746230597565866,0.0,-6.6787261962890625
1783505123843176165,1783505123.8431761,9,1.2147491327564424,-0.20594883841952544,-0.8444143244425456,-0.8444143244425456,-0.8444143244425456,0.34330871597935536,0.16736835607684727,0.0,-6.6787261962890625
1783505123941664053,1783505123.941664,9,1.2147491327564424,-0.20594883841952544,-0.8464345245361328,-0.8464345245361328,-0.8464345245361328,0.34330871597935536,0.15182961006456194,0.0,-6.6787261962890625
1783505124043818513,1783505124.0438185,9,1.2147491327564424,-0.20594883841952544,-0.84845472462972,-0.84845472462972,-0.84845472462972,0.34330871597935536,0.1326973276353782,0.0,-6.6787261962890625
1783505124142207875,1783505124.142208,9,1.2147491327564424,-0.20594883841952544,-0.8504749247233073,-0.8504749247233073,-0.8504749247233073,0.34330871597935536,0.12146091836411588,0.0,-6.6787261962890625
1783505124244492489,1783505124.2444925,9,1.2147491327564424,-0.2076941743294225,-0.8535050659179687,-0.8535050659179687,-0.8535050659179687,0.3450540518892524,0.10318910328313673,0.0,-6.6787261962890625
1783505124342705890,1783505124.342706,9,1.2147491327564424,-0.2076941743294225,-0.856535525004069,-0.856535525004069,-0.856535525004069,0.3450540518892524,0.0927118280806015,0.0,-6.6787261962890625
1783505124445137120,1783505124.4451373,9,1.2147491327564424,-0.20943949359456274,-0.8595659840901693,-0.8595659840901693,-0.8595659840901693,0.34679937115439263,0.08137421868791617,0.0,-6.6787261962890625
1783505124543502768,1783505124.5435028,9,1.2147491327564424,-0.20943949359456274,-0.8625961252848308,-0.8625961252848308,-0.8625961252848308,0.34679937115439263,0.07373134583355226,0.0,-6.678730010986328
1783505124641966129,1783505124.641966,9,1.2147491327564424,-0.20943949359456274,-0.8666365254720052,-0.8666365254720052,-0.8666365254720052,0.34679937115439263,0.06537993897117278,0.0,-6.678749084472656
1783505124744174811,1783505124.744175,9,1.2147491327564424,-0.2111848295044598,-0.8706769256591796,-0.8706769256591796,-0.8706769256591796,0.3485447070642897,0.05394112945706443,0.0,-6.678749084472656
1783505124842566948,1783505124.842567,9,1.2147491327564424,-0.2111848295044598,-0.8757275848388671,-0.8757275848388671,-0.8757275848388671,0.3485447070642897,0.0426539869670361,0.0,-6.678749084472656
1783505124944967861,1783505124.944968,9,1.2147491327564424,-0.2111848295044598,-0.8797679850260417,-0.8797679850260417,-0.8797679850260417,0.3310914145443464,0.029595442877941566,0.0,-6.678745269775391
1783505125043284115,1783505125.0432842,9,1.2147491327564424,-0.21293016541435683,-0.8848183263142904,-0.8848183263142904,-0.8848183263142904,0.35029004297418675,0.016587498849558534,0.0,-6.678745269775391
1783505125145819352,1783505125.1458194,9,1.2147491327564424,-0.21293016541435683,-0.8888587265014648,-0.8888587265014648,-0.8888587265014648,0.35029004297418675,0.00803369174433303,0.0,-6.678741455078125
1783505125243873501,1783505125.2438736,9,1.2147491327564424,-0.21293016541435683,-0.8939090677897136,-0.8939090677897136,-0.8939090677897136,0.33283675045424344,0.0038326882827875355,0.0,-6.678741455078125
1783505125342241012,1783505125.342241,9,1.2147491327564424,-0.2146754846794971,-0.897949467976888,-0.897949467976888,-0.897949467976888,0.3345820697193837,0.0033265545176179765,0.0,-6.678741455078125
1783505125444541946,1783505125.444542,9,1.2147491327564424,-0.2146754846794971,-0.9019898681640625,-0.9019898681640625,-0.9019898681640625,0.3345820697193837,0.0033265545176179765,0.0,-6.678741455078125
1783505125543185727,1783505125.5431857,9,1.2147491327564424,-0.2146754846794971,-0.906030268351237,-0.906030268351237,-0.906030268351237,0.3345820697193837,0.0032253543961949654,0.0,-6.678741455078125
1783505125645342199,1783505125.645342,9,1.2147491327564424,-0.21642082058939413,-0.9090607274373372,-0.9090607274373372,-0.9090607274373372,0.353780698149224,0.0026686205703139007,0.0,-6.678730010986328
1783505125743744936,1783505125.743745,9,1.2147491327564424,-0.21642082058939413,-0.9120911865234375,-0.9120911865234375,-0.9120911865234375,0.353780698149224,0.0024660871694133744,0.0,-6.6787261962890625
1783505125846140279,1783505125.8461401,9,1.2147491327564424,-0.21642082058939413,-0.915121327718099,-0.915121327718099,-0.915121327718099,0.353780698149224,0.0024660871694133744,0.0,-6.678730010986328
1783505125944258499,1783505125.9442585,9,1.2147491327564424,-0.21642082058939413,-0.9171415278116862,-0.9171415278116862,-0.9171415278116862,0.353780698149224,0.0024660871694133744,0.0,-6.678737640380859
1783505126046556949,1783505126.046557,9,1.2147491327564424,-0.21642082058939413,-0.9191617279052734,-0.9191617279052734,-0.9191617279052734,0.353780698149224,0.0024660871694133744,0.0,-6.678737640380859
1783505126145408090,1783505126.145408,9,1.2147491327564424,-0.21816613985453437,-0.9211819279988607,-0.9211819279988607,-0.9211819279988607,0.3555260174143643,0.0024660871694133744,0.0,-6.678737640380859
1783505126243473360,1783505126.2434733,9,1.2147491327564424,-0.21816613985453437,-0.923202128092448,-0.923202128092448,-0.923202128092448,0.3555260174143643,0.002314286987278858,0.0,-6.678737640380859
1783505126345658265,1783505126.3456583,9,1.2147491327564424,-0.21991147576443143,-0.9252223281860351,-0.9252223281860351,-0.9252223281860351,0.35727135332426135,0.003022820995294439,0.0,-6.678737640380859
1783505126444018882,1783505126.4440188,9,1.2147491327564424,-0.21991147576443143,-0.9282527872721354,-0.9282527872721354,-0.9282527872721354,0.35727135332426135,0.0041870218658225785,0.0,-6.678737640380859
1783505126546285281,1783505126.5462854,9,1.2147491327564424,-0.2216568116743285,-0.9312829284667968,-0.9312829284667968,-0.9312829284667968,0.3590166892341584,0.004338822047957095,0.0,-6.679164886474609
1783505126644705239,1783505126.6447053,9,1.2147491327564424,-0.2216568116743285,-0.9343133875528972,-0.9343133875528972,-0.9343133875528972,0.3590166892341584,0.004338822047957095,0.0,-6.680210113525391
1783505126743142060,1783505126.7431421,9,1.2147491327564424,-0.22340213093946873,-0.9383537877400716,-0.9383537877400716,-0.9383537877400716,0.3607620084992986,0.004288221987245589,0.0,-6.683597564697266
1783505126845646998,1783505126.845647,9,1.2147491327564424,-0.22340213093946873,-0.942394187927246,-0.942394187927246,-0.942394187927246,0.3607620084992986,0.004136421805111073,0.0,-6.684593200683594
1783505126943678605,1783505126.9436786,9,1.2147491327564424,-0.22340213093946873,-0.9454243291219075,-0.9454243291219075,-0.9454243291219075,0.3607620084992986,0.004136421805111073,0.0,-6.685520172119141
1783505127046025505,1783505127.0460255,9,1.2147491327564424,-0.2251474668493658,-0.950474988301595,-0.950474988301595,-0.950474988301595,0.3625073444091957,0.004136421805111073,0.0,-6.687412261962891
1783505127144414204,1783505127.1444142,9,1.2147491327564424,-0.2251474668493658,-0.9545153884887695,-0.9545153884887695,-0.9545153884887695,0.3625073444091957,0.004136421805111073,0.0,-6.689186096191406
1783505127246928810,1783505127.246929,9,1.2147491327564424,-0.2251474668493658,-0.958555788675944,-0.958555788675944,-0.958555788675944,0.3625073444091957,0.004136421805111073,0.0,-6.6998748779296875
1783505127345343118,1783505127.345343,9,1.2147491327564424,-0.2251474668493658,-0.9625961888631185,-0.9625961888631185,-0.9625961888631185,0.3625073444091957,0.004136421805111073,0.0,-6.7234039306640625
1783505127447376166,1783505127.447376,9,1.2147491327564424,-0.2251474668493658,-0.9666365890502929,-0.9666365890502929,-0.9666365890502929,0.3625073444091957,0.004136421805111073,0.0,-6.7473297119140625
1783505127546268214,1783505127.5462682,9,1.2147491327564424,-0.2251474668493658,-0.9706769892374675,-0.9706769892374675,-0.9706769892374675,0.3625073444091957,0.004136421805111073,0.0,-6.771278381347656
1783505127644120021,1783505127.64412,9,1.2147491327564424,-0.22689278611450603,-0.9747173894246419,-0.9747173894246419,-0.9747173894246419,0.36425266367433595,0.004136421805111073,0.0,-6.78948974609375
1783505127746574574,1783505127.7465746,9,1.2147491327564424,-0.22689278611450603,-0.9777475306193034,-0.9777475306193034,-0.9777475306193034,0.36425266367433595,0.004136421805111073,0.0,-6.8160552978515625
1783505127844863605,1783505127.8448634,9,1.2147491327564424,-0.22689278611450603,-0.9817879308064779,-0.9817879308064779,-0.9817879308064779,0.36425266367433595,0.004136421805111073,0.0,-6.841758728027344
1783505127947128170,1783505127.947128,9,1.2147491327564424,-0.22689278611450603,-0.9848183898925781,-0.9848183898925781,-0.9848183898925781,0.36425266367433595,0.004136421805111073,0.0,-6.8580780029296875
1783505128045041182,1783505128.045041,9,1.2147491327564424,-0.22689278611450603,-0.9868385899861654,-0.9868385899861654,-0.9868385899861654,0.36425266367433595,0.004136421805111073,0.0,-6.879665374755859
1783505128147188565,1783505128.1471884,9,1.2147491327564424,-0.2286381220244031,-0.9888587900797526,-0.9888587900797526,-0.9888587900797526,0.365997999584233,0.004136421805111073,0.0,-6.896965026855469
1783505128246640598,1783505128.2466407,9,1.2147491327564424,-0.2286381220244031,-0.9908789901733398,-0.9908789901733398,-0.9908789901733398,0.365997999584233,0.004136421805111073,0.0,-6.925136566162109
1783505128349406547,1783505128.3494065,9,1.2147491327564424,-0.2286381220244031,-0.9928991902669271,-0.9928991902669271,-0.9928991902669271,0.365997999584233,0.004136421805111073,0.0,-6.9567108154296875
1783505128447305082,1783505128.447305,9,1.2147491327564424,-0.2286381220244031,-0.9949193903605144,-0.9949193903605144,-0.9949193903605144,0.365997999584233,0.004136421805111073,0.0,-6.98443603515625
1783505128545237019,1783505128.545237,9,1.2147491327564424,-0.23038345793430015,-0.9969395904541015,-0.9969395904541015,-0.9969395904541015,0.3677433354941301,0.004136421805111073,0.0,-7.014488220214844
1783505128647512624,1783505128.6475127,9,1.2147491327564424,-0.23038345793430015,-0.9989597905476888,-0.9989597905476888,-0.9989597905476888,0.3677433354941301,0.004136421805111073,0.0,-7.046989440917969
1783505128745780164,1783505128.7457802,9,1.2147491327564424,-0.23038345793430015,-1.000979990641276,-1.000979990641276,-1.000979990641276,0.3677433354941301,0.004136421805111073,0.0,-7.076087951660156
1783505128848234236,1783505128.8482342,9,1.2147491327564424,-0.23038345793430015,-1.0030001907348634,-1.0030001907348634,-1.0030001907348634,0.3677433354941301,0.004136421805111073,0.0,-7.103359222412109
1783505128946569453,1783505128.9465694,9,1.2147491327564424,-0.23038345793430015,-1.0060306498209635,-1.0060306498209635,-1.0060306498209635,0.3677433354941301,0.004136421805111073,0.0,-7.1295623779296875
1783505129045018706,1783505129.0450187,9,1.2147491327564424,-0.23038345793430015,-1.009060791015625,-1.009060791015625,-1.009060791015625,0.3677433354941301,0.004136421805111073,0.0,-7.155338287353516
1783505129147644380,1783505129.1476445,9,1.2147491327564424,-0.2321287771994404,-1.0120909322102865,-1.0120909322102865,-1.0120909322102865,0.3694886547592703,0.004136421805111073,0.0,-7.174884796142578
1783505129245712373,1783505129.2457123,9,1.2147491327564424,-0.2321287771994404,-1.0151213912963868,-1.0151213912963868,-1.0151213912963868,0.3694886547592703,0.004136421805111073,0.0,-7.201728820800781
1783505129348039976,1783505129.3480399,9,1.2147491327564424,-0.2321287771994404,-1.0191617914835611,-1.0191617914835611,-1.0191617914835611,0.3694886547592703,0.004136421805111073,0.0,-7.220146179199219
1783505129446228376,1783505129.4462285,9,1.2147491327564424,-0.2321287771994404,-1.0221922505696615,-1.0221922505696615,-1.0221922505696615,0.3694886547592703,0.004136421805111073,0.0,-7.236804962158203
1783505129548571708,1783505129.5485716,9,1.2147491327564424,-0.23387411310933742,-1.0252223917643228,-1.0252223917643228,-1.0252223917643228,0.37123399066916735,0.003933888404210547,0.0,-7.254829406738281
1783505129647240454,1783505129.6472404,9,1.2147491327564424,-0.23387411310933742,-1.0272425918579102,-1.0272425918579102,-1.0272425918579102,0.37123399066916735,0.0034277546390409875,0.0,-7.2800140380859375
1783505129749747113,1783505129.7497473,9,1.2147491327564424,-0.23387411310933742,-1.0282525329589844,-1.0282525329589844,-1.0282525329589844,0.37123399066916735,0.003377154578329482,0.0,-7.313529968261719
1783505129847597517,1783505129.8475976,9,1.2147491327564424,-0.2356194323744777,-1.0282525329589844,-1.0282525329589844,-1.0282525329589844,0.3729793099343076,0.003579554821175504,0.0,-7.359043121337891
1783505129946052520,1783505129.9460526,9,1.2147491327564424,-0.2356194323744777,-1.0292627919514974,-1.0292627919514974,-1.0292627919514974,0.3729793099343076,0.004237621926534083,0.0,-7.4069671630859375
1783505130047824625,1783505130.0478246,9,1.2147491327564424,-0.23736476828437472,-1.0292627919514974,-1.0292627919514974,-1.0292627919514974,0.3747246458442046,0.004541355448857621,0.0,-7.453723907470703
1783505130146996007,1783505130.146996,9,1.2147491327564424,-0.23911010419427178,-1.0292627919514974,-1.0292627919514974,-1.0292627919514974,0.3764699817541017,0.004541355448857621,0.0,-7.4877471923828125
1783505130249565575,1783505130.2495656,9,1.2147491327564424,-0.24085542345941202,-1.0302730509440103,-1.0302730509440103,-1.0302730509440103,0.37821530101924195,0.003933888404210547,0.0,-7.5317840576171875
1783505130347564758,1783505130.3475647,9,1.2147491327564424,-0.24085542345941202,-1.0302730509440103,-1.0302730509440103,-1.0302730509440103,0.37821530101924195,0.0035289547604639986,0.0,-7.571964263916016
1783505130445735425,1783505130.4457355,9,1.2147491327564424,-0.24085542345941202,-1.0302730509440103,-1.0302730509440103,-1.0302730509440103,0.37821530101924195,0.0034277546390409875,0.0,-7.613529205322266
1783505130548313358,1783505130.5483134,9,1.2147491327564424,-0.24260075936930908,-1.0302730509440103,-1.0302730509440103,-1.0302730509440103,0.379960636929139,0.0034277546390409875,0.0,-7.6660919189453125
1783505130650862507,1783505130.6508627,9,1.2147491327564424,-0.24434607863444932,-1.0302730509440103,-1.0302730509440103,-1.0302730509440103,0.3817059561942792,0.004389422108668601,0.0,-7.723484039306641
1783505130748799944,1783505130.7488,9,1.2147491327564424,-0.24609141454434638,-1.0302730509440103,-1.0302730509440103,-1.0302730509440103,0.3834512921041763,0.0045919555095691265,0.0,-7.771167755126953
1783505130847153956,1783505130.847154,9,1.2164944353768259,-0.24783675045424344,-1.0302730509440103,-1.0302730509440103,-1.0302730509440103,0.38519662801407334,0.0045919555095691265,0.0,-7.828250885009766
1783505130949516193,1783505130.9495163,9,1.2147491327564424,-0.24958206971938368,-1.0302730509440103,-1.0302730509440103,-1.0302730509440103,0.3869419472792136,0.0041870218658225785,0.0,-7.897045135498047
1783505131047834628,1783505131.0478346,9,1.2164944353768259,-0.25132740562928074,-1.0302730509440103,-1.0302730509440103,-1.0302730509440103,0.38868728318911067,0.0034277546390409875,0.0,-7.953651428222656
1783505131150171326,1783505131.1501713,9,1.2164944353768259,-0.25132740562928074,-1.0302730509440103,-1.0302730509440103,-1.0302730509440103,0.38868728318911067,0.0032759544569064707,0.0,-7.999546051025391
1783505131248510099,1783505131.2485101,9,1.2164944353768259,-0.25132740562928074,-1.0302730509440103,-1.0302730509440103,-1.0302730509440103,0.38868728318911067,0.003377154578329482,0.0,-8.072093963623047
1783505131346803436,1783505131.3468034,9,1.2164944353768259,-0.25307272489442095,-1.0302730509440103,-1.0302730509440103,-1.0302730509440103,0.3904326024542509,0.0041870218658225785,0.0,-8.132041931152344
1783505131449391117,1783505131.4493911,9,1.2164944353768259,-0.2565633967142151,-1.0302730509440103,-1.0302730509440103,-1.0302730509440103,0.393923274274045,0.004743755691703643,0.0,-8.190391540527344
1783505131547593483,1783505131.5475934,9,1.2147491327564424,-0.25830871597935534,-1.0302730509440103,-1.0302730509440103,-1.0302730509440103,0.39566859353918526,0.0047943557524151486,0.0,-8.251483917236328
1783505131649660543,1783505131.6496603,9,1.2164944353768259,-0.2600540518892524,-1.0302730509440103,-1.0302730509440103,-1.0302730509440103,0.3974139294490823,0.0040350885256335576,0.0,-8.312946319580078
1783505131748230742,1783505131.7482307,9,1.2164944353768259,-0.2617993711543926,-1.0302730509440103,-1.0302730509440103,-1.0302730509440103,0.39915924871422254,0.003579554821175504,0.0,-8.372058868408203
1783505131850957104,1783505131.8509572,9,1.2164944353768259,-0.2617993711543926,-1.0302730509440103,-1.0302730509440103,-1.0302730509440103,0.39915924871422254,0.0033265545176179765,0.0,-8.423259735107422
1783505131949209184,1783505131.949209,9,1.2164944353768259,-0.2617993711543926,-1.0302730509440103,-1.0302730509440103,-1.0302730509440103,0.39915924871422254,0.0033265545176179765,0.0,-8.475749969482422
1783505132051511477,1783505132.0515115,9,1.2164944353768259,-0.2635447070642897,-1.0302730509440103,-1.0302730509440103,-1.0302730509440103,0.4009045846241196,0.0041870218658225785,0.0,-8.532493591308594
1783505132149571333,1783505132.1495714,9,1.2164944353768259,-0.26529002632942994,-1.0302730509440103,-1.0302730509440103,-1.0302730509440103,0.40264990388925986,0.004490622230091611,0.0,-8.57363510131836
1783505132248251629,1783505132.2482517,9,1.2164944353768259,-0.26703536223932695,-1.0302730509440103,-1.0302730509440103,-1.0302730509440103,0.40439523979915687,0.004743755691703643,0.0,-8.637332916259766
1783505132350913800,1783505132.3509138,9,1.2164944353768259,-0.268780698149224,-1.0302730509440103,-1.0302730509440103,-1.0302730509440103,0.40614057570905393,0.004490622230091611,0.0,-8.686744689941406
1783505132449147314,1783505132.4491475,9,1.2164944353768259,-0.2705260174143643,-1.0302730509440103,-1.0302730509440103,-1.0302730509440103,0.4078858949741942,0.0035289547604639986,0.0,-8.750900268554688
1783505132551070151,1783505132.5510702,9,1.2164944353768259,-0.2705260174143643,-1.0302730509440103,-1.0302730509440103,-1.0302730509440103,0.3904326024542509,0.0032253543961949654,0.0,-8.821521759033203
1783505132649382834,1783505132.6493828,9,1.2164944353768259,-0.27227135332426133,-1.0312829920450846,-1.0312829920450846,-1.0312829920450846,0.39217793836414794,0.0032253543961949654,0.0,-8.879154205322266
1783505132751690357,1783505132.7516901,9,1.2164944353768259,-0.27227135332426133,-1.0312829920450846,-1.0312829920450846,-1.0312829920450846,0.39217793836414794,0.003984488464922052,0.0,-8.939220428466797
1783505132850214108,1783505132.8502142,9,1.2164944353768259,-0.27401667258940154,-1.0312829920450846,-1.0312829920450846,-1.0312829920450846,0.41137655014923147,0.004743755691703643,0.0,-8.994407653808594
1783505132948215644,1783505132.9482155,9,1.2164944353768259,-0.27750734440919567,-1.0312829920450846,-1.0312829920450846,-1.0312829920450846,0.4148672219690256,0.004743755691703643,0.0,-9.0501708984375
1783505133050950672,1783505133.0509508,9,1.2164944353768259,-0.27925266367433593,-1.0312829920450846,-1.0312829920450846,-1.0312829920450846,0.41661254123416586,0.004389422108668601,0.0,-9.113636016845703
1783505133149161062,1783505133.1491609,9,1.2164944353768259,-0.28099798293947614,-1.0312829920450846,-1.0312829920450846,-1.0312829920450846,0.41835786049930607,0.003883288343499041,0.0,-9.167427062988281
1783505133251748822,1783505133.2517488,9,1.2164944353768259,-0.28099798293947614,-1.0312829920450846,-1.0312829920450846,-1.0312829920450846,0.40090456797936275,0.0033265545176179765,0.0,-9.231346130371094
1783505133349517950,1783505133.3495178,9,1.2164944353768259,-0.28099798293947614,-1.0312829920450846,-1.0312829920450846,-1.0312829920450846,0.40090456797936275,0.0033265545176179765,0.0,-9.281196594238281
1783505133452285449,1783505133.4522855,9,1.2164944353768259,-0.2827433188493732,-1.0312829920450846,-1.0312829920450846,-1.0312829920450846,0.42010319640920313,0.003984488464922052,0.0,-9.335807800292969
